!!!!SEGMENT: pl-wnifc--6577-n_nowicki-ludwik--cieniom-adama-mickiewicza-koncert-nad-koncertami-jankiela.krn
!!!cenid: 18xx:3963
!!!COM: Nowicki, Ludwik
!!!COM-rismID: pe30020312
!!!CDT: ~1830-1886
!!!CNT: Polish
!!!OTL: Cieniom Adama Mickiewicza/Koncert nad koncertami Jankiela
!!!PDT:
!!!AGN:
!!!SMS-siglum: PL-Wnifc
!!!SMS-shelfmark: 6577/n
!!!SMS-shelfwork: W
!!!SMS-variant:
!!!SMS-altvar:
!!!NIFC-rismSourceID: 1001137705
!!!NIFC-rismChildID: 1001137705
!!!NIFC-islandoraID: nifc:212884
!!!URL-pdf-islandora: https://repozytorium.nifc.pl/islandora/object/nifc%3A212884/datastream/PDF/view
!!!URL-scan: https://polish.musicsources.pl/pl/lokalizacje/galeria/druki-muzyczne/16868 @EN{Scan on Polish Music Sources Website} @PL{Skany w portalu Dziedzictwo Muzyki Polskiej w otwartym dostępie}
!!!ONB-nifc:
!!!AIN: 2 piano
!!!key: B-
**kern	**fing	**dynam	**kern	**fing	**dynam
*part2	*part2	*part2	*part1	*part1	*part1
*staff2	*	*	*staff1	*	*
*I"Piano.	*	*	*I"Piano.	*	*
*I'pf	*	*	*I'pf	*	*
*ICklav	*	*	*ICklav	*	*
*Ipiano	*	*	*Ipiano	*	*
*>[A,A1,A,A1,B]	*>[A,A1,A,A1,B]	*>[A,A1,A,A1,B]	*>[A,A1,A,A1,B]	*>[A,A1,A,A1,B]	*>[A,A1,A,A1,B]
*>A	*>A	*>A	*>A	*>A	*>A
*clefF4	*	*	*clefG2	*	*
*k[b-e-]	*	*	*k[b-e-]	*	*
*B-:	*	*	*B-:	*	*
*M3/4	*	*	*M3/4	*	*
!	!	!	!LO:TUP:b:problem:klamra łukowa	!	!
8FFF/ 8FF	.	.	(24F/LL	.	.
.	.	.	24G/	.	.
.	.	.	24A/JJ	.	.
=2	=2	=2	=2	=2	=2
*ped	*	*	*	*	*
4.BBB-/ 4.BB-	.	.	4.B-/)	.	f
!	!	!	!LO:TUP:b:problem:klamra łukowa	!	!
8FFF/ 8FF	.	.	(24F/LL	.	.
.	.	.	24G/	.	.
.	.	.	24A/J	.	.
8BBB-/L 8BB-	.	.	8B-/J)	.	.
!	!	!	!LO:TUP:b:problem:klamra łukowa	!	!
8FFF/J 8FF	.	.	(24F/LL	.	.
.	.	.	24G/	.	.
.	.	.	24A/JJ	.	.
=3	=3	=3	=3	=3	=3
4.BBB-/ 4.BB-	.	.	4.B-/)	.	.
!	!	!	!LO:TUP:b:problem:klamra łukowa	!	!
8FFF/ 8FF	.	.	(<24F/LL	.	.
.	.	.	24G/	.	.
.	.	.	24A/J	.	.
8BBB-/L 8BB-	.	.	8B-/J)	.	.
!	!	!	!LO:TUP:b:problem:klamra łukowa	!	!
8FFF/J 8FF	.	.	(24F/LL	.	.
.	.	.	24G/	.	.
.	.	.	24A/JJ	.	.
*Xped	*	*	*	*	*
=4	=4	=4	=4	=4	=4
*ped	*	*	*	*	*
8BBB-/L 8BB-	.	.	8B-/L)	.	.
8DD/J 8D	.	.	16d/L	.	.
.	.	.	16d/JJ	.	.
8FF/L 8F	.	.	8f/L	.	.
8DD/J 8D	.	.	16d/L	.	.
*Xped	*	*	*	*	*
.	.	.	16d/JJ	.	.
8CC/L 8C	.	.	8c/L	.	.
8FFF/J 8FF	.	.	8F/J	.	.
!!LO:LB:g=original	!	!
=5	=5	=5	=5	=5	=5
*	*	*	*ped	*	*
4.BBB-/ 4.BB-	.	.	4.B-/	.	.
!	!	!	!LO:TUP:b:problem:klamra łukowa	!	!
8FFF/ 8FF	.	.	(24F/LL	.	.
.	.	.	24G/	.	.
.	.	.	24A/JJ	.	.
8BBB-/L 8BB-	.	.	8B-/)	.	.
!	!	!	!LO:TUP:b:problem:klamra łukowa	!	!
8FFF/J 8FF	.	.	(24F/LL	.	.
.	.	.	24G/	.	.
.	.	.	24A/JJ	.	.
=6	=6	=6	=6	=6	=6
4.BBB-/ 4.BB-	.	.	4.B-/)	.	.
!	!	!	!LO:TUP:b:problem:klamra łukowa	!	!
8FFF/ 8FF	.	.	(24F/LL	.	.
.	.	.	24G/	.	.
.	.	.	24A/J	.	.
8BBB-/L 8BB-	.	.	8B-/J)	.	.
!	!	!	!LO:TUP:b:problem:klamra łukowa	!	!
8FFF/J 8FF	.	.	(24F/LL	.	.
.	.	.	24G/	.	.
.	.	.	24A/JJ	.	.
*	*	*	*Xped	*	*
=7	=7	=7	=7	=7	=7
*	*	*	*ped	*	*
8BBB-/L 8BB-	.	.	8B-/L)	.	.
8DD/J 8D	.	.	16d/L	.	.
.	.	.	16d/JJ	.	.
8FF/L 8F	.	.	8f/L	.	.
8DD/J 8D	.	.	16d/L	.	.
*	*	*	*Xped	*	*
.	.	.	16d/JJ	.	.
8CC/L 8C	.	.	8c/L	.	.
8FFF/J 8FF	.	.	8F/J	.	.
=8	=8	=8	=8	=8	=8
*	*	*	*ped	*	*
8BBB-/L 8BB-	.	.	8B-/L	.	.
8DD/J 8D	.	.	16d/L	.	.
.	.	.	16d/JJ	.	.
8FF/L 8F	.	.	8f/L	.	.
8DD/J 8D	.	.	16d/L	.	.
.	.	.	16d/JJ	.	.
8BBB-/L 8BB-	.	.	8B-/L	.	.
8DD/J 8D	.	.	8d/J	.	.
*	*	*	*Xped	*	*
=9	=9	=9	=9	=9	=9
8FFF/ 8FF	.	.	8F^/L	.	.
8r	.	.	16f/L	.	.
.	.	.	16f/JJ	.	.
4r	.	.	8f/L	.	.
.	.	.	16f/L	.	.
.	.	.	16f/JJ	.	.
4r	.	.	8f/L	.	.
.	.	.	16f/L	.	.
.	.	.	16f/JJ	.	.
!!LO:LB:g=original	!	!
=10	=10	=10	=10	=10	=10
*^	*	*	*	*	*
*	*	*	*	*ped	*	*
8rB	2.BBB-\ 2.BB-	.	.	16ryy	.	mf
!	!	!	!	!LO:TX:t=P:problem: na źródle doklejony fragment papieru/ta[my	!	!
.	.	.	.	16d/LL 16f	.	.
8D/L 8F 8B-	.	.	.	16d/ 16f	.	.
.	.	.	.	16d/JJ 16f	.	.
8D/ 8F 8B-	.	.	.	8d/L 8f	.	.
8D/ 8F 8B-	.	.	.	8d/J 8f 8dd	.	.
8D/ 8F 8B-	.	.	.	8d/L 8f 8b-	.	.
8D/J 8F 8B-	.	.	.	8d/J 8f	.	.
*	*	*	*	*Xped	*	*
=11	=11	=11	=11	=11	=11	=11
*	*	*	*	*^	*	*
*	*	*	*	*ped	*	*	*
16rB	2.BBB-\ 2.BB-	.	.	2.e-/ 2.g-X	8.ryy	.	.
16E-/LL 16G-X 16B-	.	.	.	.	.	.	.
16E-/ 16G- 16B-	.	.	.	.	.	.	.
16E-/JJ 16G- 16B-	.	.	fz >	.	2ryy	.	.
8E-/L 8G- 8B-	.	.	.	.	.	.	.
8E-/ 8G- 8B-	.	.	.	.	.	.	.
8E-/ 8G- 8B-	.	.	.	.	.	.	.
8E-/J 8G- 8B-	.	.	.	.	.	.	.
.	.	.	]	.	16ryy	.	.
*	*	*	*	*Xped	*	*	*
*	*	*	*	*v	*v	*	*
=12	=12	=12	=12	=12	=12	=12
*	*	*	*	*ped	*	*
8rB	2.BBB-\ 2.BB-	.	.	8f/L 8a 8cc	.	.
8E-/L 8F 8A 8c	.	.	.	16f/L 16a 16cc	.	.
.	.	.	.	16f/JJ 16a 16cc	.	.
8E-/ 8F 8A 8c	.	.	.	8f/L 8a 8cc	.	.
8E-/ 8F 8A 8c	.	.	.	8f/ 8a 8ff	.	.
8E-/ 8F 8A 8c	.	.	.	8f/ 8a 8ee-	.	.
8E-/J 8F 8A 8c	.	.	.	8f/J 8a 8cc	.	.
*	*	*	*	*Xped	*	*
=13	=13	=13	=13	=13	=13	=13
*	*	*	*	*^	*	*
*	*	*	*	*ped	*	*	*
8rB	2.BBB-\ 2.BB-	.	.	2.f^>/ 2.b- 2.dd	8.ryy	.	.
16F/LL 16B- 16d	.	.	.	.	.	.	.
16F/JJ 16B- 16d	.	.	fz >	.	16ryy	.	.
8F/L 8B- 8d	.	.	.	.	2ryy	.	.
8F/ 8B- 8d	.	.	.	.	.	.	.
8F/ 8B- 8d	.	.	.	.	.	.	.
8F/J 8B- 8d	.	.	]]	.	.	.	.
*	*	*	*	*Xped	*	*	*
*	*	*	*	*v	*v	*	*
!!LO:LB:g=original	!	!	!	!
=14	=14	=14	=14	=14	=14	=14
*	*	*	*	*ped	*	*
8rB	2.BBB-\ 2.BB-	.	.	8g\L 8cc 8een 8gg	.	.
8G/L 8c 8en	.	.	.	16g\L 16cc 16ee 16gg	.	.
.	.	.	.	16g\JJ 16cc 16ee 16gg	.	.
8G/ 8c 8e	.	.	.	8g\L 8cc 8ee 8gg	.	.
8G/ 8c 8e	.	.	.	8g\ 8cc 8ee 8gg	.	.
8G/ 8c 8e	.	.	.	8g\ 8cc 8ee 8aa	.	.
8G/J 8c 8e	.	.	.	8g\J 8cc 8ee 8gg	.	.
*	*	*	*	*Xped	*	*
=15	=15	=15	=15	=15	=15	=15
*	*	*	*	*^	*	*
*	*	*	*	*ped	*	*	*
8rB	2.BBB-\ 2.BB-	.	.	2.a\ 2.cc 2.ee-X 2.ff	8.ryy	.	.
16F/LL 16A 16c 16e-X	.	.	.	.	.	.	.
16F/J 16A 16c 16e-	.	.	fz >	.	16ryy	.	.
8F/ 8A 8c 8e-	.	.	.	.	2ryy	.	.
8F/ 8A 8c 8e-	.	.	.	.	.	.	.
8F/ 8A 8c 8e-	.	.	.	.	.	.	.
8F/J 8A 8c 8e-	.	.	]	.	.	.	.
*	*	*	*	*Xped	*	*	*
*	*	*	*	*v	*v	*	*
=16	=16	=16	=16	=16	=16	=16
*	*	*	*	*ped	*	*
8rB	2.BBB-\ 2.BB-	.	.	8f/L 8a 8ee-	.	.
8F/L 8A 8c	.	.	.	16f/L 16a 16ee-	.	.
.	.	.	.	16f/JJ 16a 16ee-	.	.
8F/ 8A 8c	.	.	.	8f/L 8a 8ee-	.	.
8F/ 8A 8c	.	.	.	8f/ 8a 8ee-	.	.
8F/ 8A 8c	.	.	.	8e-/ 8a 8dd	.	.
8F/J 8A 8c	.	.	.	8e-/J 8a 8cc	.	.
*	*	*	*	*Xped	*	*
=17	=17	=17	=17	=17	=17	=17
*	*	*	*	*^	*	*
*	*	*	*	*ped	*	*	*
8rB	2.BBB-\ 2.BB-	.	.	2.d/ 2.f 2.b-	8.ryy	.	.
16D/LL 16F 16B-	.	.	.	.	.	.	.
16D/JJ 16F 16B-	.	.	fz >	.	16ryy	.	.
8D/L 8F 8B-	.	.	.	.	2ryy	.	.
8D/ 8F 8B-	.	.	.	.	.	.	.
8D/ 8F 8B-	.	.	.	.	.	.	.
8D/J 8F 8B-	.	.	]	.	.	.	.
*	*	*	*	*Xped	*	*	*
*	*	*	*	*v	*v	*	*
!!LO:PB:g=original	!	!	!	!
=18	=18	=18	=18	=18	=18	=18
*	*	*	*	*ped	*	*
8rB	2.BBB-\ 2.BB-	.	.	16d/LL 16f	.	p
.	.	.	.	16d/ 16f	.	.
8D/L 8F 8B-	.	.	.	16d/ 16f	.	.
.	.	.	.	16d/JJ 16f	.	<
8D/ 8F 8B-	.	.	.	8d/L 8f	.	.
8D/ 8F 8B-	.	.	.	8d/J 8f 8dd	.	.
8D/ 8F 8B-	.	.	.	8d/L 8f 8b-	.	.
8D/J 8F 8B-	.	.	.	8d/J 8f	.	.
*	*	*	*	*Xped	*	*
=19	=19	=19	=19	=19	=19	=19
*	*	*	*	*^	*	*
*	*	*	*	*ped	*	*	*
16rB	2.BBB-\ 2.BB-	.	.	2.e-^>/ 2.g-X	8.ryy	.	.
16E-/LL 16G-X 16B-	.	.	.	.	.	.	.
16E-/ 16G- 16B-	.	.	.	.	.	.	.
16E-/JJ 16G- 16B-	.	.	fz	.	16ryy	.	.
8E-/L 8G- 8B-	.	.	.	.	2ryy	.	.
8E-/ 8G- 8B-	.	.	.	.	.	.	.
8E-/ 8G- 8B-	.	.	.	.	.	.	.
8E-/J 8G- 8B-	.	.	.	.	.	.	.
*	*	*	*	*Xped	*	*	*
*	*	*	*	*v	*v	*	*
=20	=20	=20	=20	=20	=20	=20
*	*	*	*	*ped	*	*
8rB	2.BBB-\ 2.BB-	.	.	16f/LL 16a 16cc	.	.
.	.	.	.	16f/ 16a 16cc	.	.
8E-/L 8F 8A 8c	.	.	.	16f/ 16a 16cc	.	.
.	.	.	.	16f/JJ 16a 16cc	.	.
8E-/ 8F 8A 8c	.	.	.	8f/L 8a 8cc	.	.
8E-/ 8F 8A 8c	.	.	.	8f/ 8a 8ff	.	.
8E-/ 8F 8A 8c	.	.	.	8f/ 8a 8ee-	.	.
8E-/J 8F 8A 8c	.	.	.	8f/J 8a 8cc	.	.
*	*	*	*	*Xped	*	*
=21	=21	=21	=21	=21	=21	=21
*	*	*	*	*ped	*	*
16rB	2.BBB-\ 2.BB-	.	.	2.f/ 2.b- 2.dd	.	.
16F/LL 16B- 16d	.	.	.	.	.	.
16F/ 16B- 16d	.	.	.	.	.	.
16F/JJ 16B- 16d	.	.	.	.	.	.
8F/L 8B- 8d	.	.	.	.	.	.
8F/ 8B- 8d	.	.	.	.	.	.
8F/ 8B- 8d	.	.	.	.	.	.
8F/J 8B- 8d	.	.	.	.	.	.
!!LO:LB:g=original	!	!	!	!
*	*	*	*	*Xped	*	*
=22	=22	=22	=22	=22	=22	=22
*	*	*	*	*ped	*	*
8rB	2.BBB-\ 2.BB-	.	.	16g\LL 16cc 16een 16gg	.	.
.	.	.	.	16g\ 16cc 16ee 16gg	.	.
8G/L 8c 8en	.	.	.	16g\ 16cc 16ee 16gg	.	.
.	.	.	.	16g\JJ 16cc 16ee 16gg	.	.
8G/ 8c 8e	.	.	.	8g\L 8cc 8ee 8gg	.	.
8G/ 8c 8e	.	.	.	8g\ 8cc 8ee 8gg	.	.
8G/ 8c 8e	.	.	.	8g\ 8cc 8ee 8aa	.	.
8G/J 8c 8e	.	.	.	8g\J 8cc 8ee 8gg	.	.
*	*	*	*	*Xped	*	*
=23	=23	=23	=23	=23	=23	=23
*	*	*	*	*ped	*	*
16rB	2.BBB-\ 2.BB-	.	.	2.a\ 2.cc 2.ee-X 2.ff	.	.
16F/LL 16A 16c 16e-X	.	.	.	.	.	.
16F/ 16A 16c 16e-	.	.	.	.	.	.
16F/JJ 16A 16c 16e-	.	.	.	.	.	.
8F/L 8A 8c 8e-	.	.	.	.	.	.
8F/ 8A 8c 8e-	.	.	.	.	.	.
8F/ 8A 8c 8e-	.	.	.	.	.	.
8F/J 8A 8c 8e-	.	.	.	.	.	.
*	*	*	*	*Xped	*	*
=24	=24	=24	=24	=24	=24	=24
*	*	*	*	*ped	*	*
8rB	2.BBB-\ 2.BB-	.	.	16f/LL 16a 16ee-	.	.
.	.	.	.	16f/ 16a 16ee-	.	.
8F/L 8A 8c	.	.	.	16f/ 16a 16ee-	.	.
.	.	.	.	16f/JJ 16a 16ee-	.	.
8F/ 8A 8c	.	.	.	8f/L 8a 8ee-	.	.
8F/ 8A 8c	.	.	.	8f/ 8a 8ee-	.	.
8F/ 8A 8c	.	.	.	8e-/ 8a 8dd	.	.
8F/J 8A 8c	.	.	.	8e-/J 8a 8cc	.	.
*	*	*	*	*Xped	*	*
*v	*v	*	*	*	*	*
=25	=25	=25	=25	=25	=25
*	*	*	*ped	*	*
!LO:TX:t=P:problem:mixed beam	!	!	!	!	!
8BBB-/L 8BB-	.	.	8d/L 8g	.	.
!	!	!	!	!	!LO:DY:b:t=mezza forte
(8d\	.	.	16f/L 16b- 16ff	.	mf
.	.	.	16f/JJ 16b- 16ff	.	.
8B-\	.	.	8f/L 8dd	.	.
8F\	.	.	16d/L 16b-	.	.
.	.	.	16d/JJ 16b-	.	.
8D\	.	.	8B-/L 8f	.	.
8BB-\J)	.	.	16F/L 16d	.	.
.	.	.	16F/JJ 16d	.	.
*	*	*	*Xped	*	*
!!LO:LB:g=original	!	!	!
=26	=26	=26	=26	=26	=26
*	*	*	*ped	*	*
8FF/L	.	.	8F/L 8A 8c	.	.
8EE-/J 8E-	.	.	16F/L 16A 16c 16f	.	.
.	.	.	16F/JJ 16A 16c 16f	.	.
*	*	*	*Xped	*	*
*	*	*	*ped	*	*
8DD/L 8D	.	.	8G/L 8B- 8f	.	.
8DD-X/ 8D-X	.	.	16G#X/L 16Bn 16f	.	.
.	.	.	16G#/JJ 16B 16f	.	.
*	*	*	*Xped	*	*
*	*	*	*ped	*	*
8CC/ 8C	.	.	8A/L 8c 8f	.	.
8AAA/J 8AA	.	.	16c/L 16e- 16f	.	.
.	.	.	16c/JJ 16e- 16f	.	.
*	*	*	*Xped	*	*
=27	=27	=27	=27	=27	=27
*	*	*	*ped	*	*
8BBB-/ 8BB-	.	.	8B-/ 8d 8f	.	.
(8d\L	.	.	16f/LL 16b- 16ff	.	mf
.	.	.	16f/JJ 16b- 16ff	.	.
8B-\	.	.	8f/L 8dd	.	.
8F\	.	.	16d/L 16b-	.	.
.	.	.	16d/JJ 16b-	.	.
8D\	.	.	8B-/L 8f	.	.
8BB-\J)	.	.	16F/L 16d	.	.
.	.	.	16F/JJ 16d	.	.
*	*	*	*Xped	*	*
=28	=28	=28	=28	=28	=28
*	*	*	*ped	*	*
8FF/L	.	.	8F/L 8A 8c	.	.
8EE-/J 8E-	.	.	16F/L 16A 16c 16f	.	ff
.	.	.	16F/JJ 16A 16c 16f	.	.
*	*	*	*Xped	*	*
*	*	*	*ped	*	*
8DD/L 8D	.	.	8G/L 8B- 8f	.	.
8DD-X/ 8D-X	.	.	16G#X/L 16Bn 16f	.	.
.	.	.	16G#/JJ 16B 16f	.	.
*	*	*	*Xped	*	*
*	*	*	*ped	*	*
8CC/ 8C	.	.	8A/L 8c 8f	.	.
8AAA/J 8AA	.	.	16c/L 16e- 16f	.	.
.	.	.	16c/JJ 16e- 16f	.	.
*	*	*	*Xped	*	*
=29	=29	=29	=29	=29	=29
*	*	*	*ped	*	*
4.FFF/ 4.FF	.	.	8A/L 8c 8e- 8f	.	fff
.	.	.	16A/L 16c 16e- 16f	.	.
.	.	.	16A/JJ 16c 16e- 16f	.	.
.	.	.	8A/L 8c 8e- 8f	.	.
8EE-/L 8E-	.	.	16A/L 16c 16e- 16f	.	.
.	.	.	16A/JJ 16c 16e- 16f	.	.
8CC/ 8C	.	.	8A/L 8c 8e- 8f	.	.
8AAA/J 8AA	.	.	16A/L 16c 16e- 16f	.	.
.	.	.	16A/JJ 16c 16e- 16f	.	.
!!LO:LB:g=original	!	!	!
=30	=30	=30	=30	=30	=30
4.FFF/ 4.FF	.	.	8A/L 8c 8e- 8f	.	.
.	.	.	16A/L 16c 16e- 16f	.	.
.	.	.	16A/JJ 16c 16e- 16f	.	.
.	.	.	8A/L 8c 8e- 8f	.	.
8EE-/L 8E-	.	.	16A/L 16c 16e- 16f	.	.
.	.	.	16A/JJ 16c 16e- 16f	.	.
8CC/ 8C	.	.	8A/L 8c 8e- 8f	.	.
8AAA/J 8AA	.	.	16A/L 16c 16e- 16f	.	.
.	.	.	16A/JJ 16c 16e- 16f	.	.
=31	=31	=31	=31	=31	=31
4FFF/ 4FF	.	.	4A/ 4c 4e- 4f	.	.
*	*	*	*Xped	*	*
4r	.	.	4r	.	.
4r	.	.	8f/L	.	fp
.	.	.	8e-/J	.	.
=32	=32	=32	=32	=32	=32
*	*	*	*ped	*	*
!	!	!	!LO:TX:b:i:t=espress.	!	!
8BBB-/L 8BB-	.	.	8d/L	.	.
8B-\J	.	.	16f/L	.	.
.	.	.	16f/JJ	.	.
8F\L 8d	.	.	4.b-/	.	.
8B-\	.	.	.	.	.
8F\ 8d	.	.	.	.	.
8B-\J	.	.	8f/	.	.
*	*	*	*Xped	*	*
=33	=33	=33	=33	=33	=33
.	.	.	8qa/	.	.
*	*	*	*ped	*	*
(8EE-/L	.	.	(16g/LL	.	.
.	.	.	16f#X/	.	.
8G\J	.	.	16g/	.	.
.	.	.	16a/JJ	.	.
8E-\L 8c	.	.	4.g/	.	.
8G\	.	.	.	.	.
8E-\ 8c	.	.	.	.	.
8G\J)	.	.	8f#/)	.	.
*	*	*	*Xped	*	*
=34	=34	=34	=34	=34	=34
*	*	*	*ped	*	*
(8FF/L	.	.	8fn/L	.	.
8e-\J	.	.	16a/L	.	.
.	.	.	16a/JJ	.	.
8A\L 8f	.	.	8cc\L	.	.
8F\ 8e-	.	.	8bn\	.	.
8A\ 8f	.	.	8cc\	.	.
8F\J) 8e-	.	.	8cc#X\J	.	.
*	*	*	*Xped	*	*
=35	=35	=35	=35	=35	=35
.	.	.	8qee-/	.	.
*	*	*	*ped	*	*
(8BBB-/L 8BB-	.	.	(16dd\LL	.	.
.	.	.	16cc#X\	.	.
8B-\J	.	.	16dd\	.	.
.	.	.	16b-\JJ	.	.
8F\L 8d	.	.	4.f/	.	.
8B-\	.	.	.	.	.
8F\ 8d	.	.	.	.	.
8B-\J)	.	.	8b-\)	.	.
*	*	*	*Xped	*	*
=36	=36	=36	=36	=36	=36
.	.	.	(8qa/	.	.
*	*	*	*ped	*	*
(8DD/L	.	.	8b-\L)	.	.
.	.	.	(8qgg/	.	.
8B-\J	.	.	8ff\)	.	.
.	.	.	(8qa/	.	.
8F\L 8d	.	.	8b-\)	.	.
.	.	.	(8qgg/	.	.
8B-\J	.	.	8ff\J)	.	.
.	.	.	(8qa/	.	.
8F\L 8d	.	.	8b-\L)	.	.
.	.	.	(8qgg/	.	.
8B-\J)	.	.	8ff\J)	.	.
*	*	*	*Xped	*	*
=37	=37	=37	=37	=37	=37
.	.	.	(8qbn/	.	.
*	*	*	*ped	*	*
(8EE-/L	.	.	8cc\L)	.	.
.	.	.	(8qff/	.	.
8G\J	.	.	16ee-\L)	.	.
.	.	.	16cc\JJ	.	.
8E-\L 8c	.	.	4.g/	.	.
8G\	.	.	.	.	.
8E-\ 8c	.	.	.	.	.
8G\J)	.	.	8f#X/	.	.
*	*	*	*Xped	*	*
=38	=38	=38	=38	=38	=38
*	*	*	*	*below	*
.	.	.	8qg/	4	.
*	*	*	*ped	*	*
(8GG/L	.	.	(16f/LL	3	.
.	.	.	16en/	.	.
8F\J	.	.	16f/	.	.
.	.	.	16g/JJ	.	.
8B-\L 8d	.	.	16a/LL	1	.
.	.	.	16b-/	2	.
8F\J	.	.	16bn/	.	.
*	*	*	*Xped	*	*
.	.	.	16cc/JJ)	.	.
*	*	*	*ped	*	*
8A\L 8c	.	.	8.e-X/L 8.a 8.dd	.	.
8F\J)	.	.	.	.	.
.	.	.	16cc/Jk	.	.
*	*	*	*Xped	*	*
=39	=39	=39	=39	=39	=39
*	*	*	*ped	*	*
(8BB-/L	.	.	8d/L 8b-	.	.
8FF/J) 8F	.	.	(16d/L 16a 16dd	.	.
.	.	.	16cc/JJ	.	.
(8BB-/L	.	.	8d/L) 8b-	.	.
8FF/J) 8F	.	.	(16e-/L 16a 16dd	.	.
.	.	.	16cc/JJ	.	.
4BB-/	.	.	4d/) 4dd	.	.
*	*	*	*Xped	*	*
!!LO:PB:g=original	!	!	!	!	!
=40!|:	=40!|:	=40!|:	=40!|:	=40!|:	=40!|:
*	*	*	*ped	*	*
8DD\L 8D	.	.	8d/ 8f#X 8a 8dd	.	f
8DD\J	.	.	(<16D</LL	.	.
.	.	.	16F#X</	.	.
8FF#X\L	.	.	16A</	.	.
.	.	.	16d</	.	.
8AA\J	.	.	16f#/	.	.
.	.	.	16a/JJ)	.	.
8D/L	.	.	8.d/L 8.f# 8.dd	.	.
8DD/J	.	.	.	.	.
.	.	.	16cc/Jk	.	.
*	*	*	*Xped	*	*
=41	=41	=41	=41	=41	=41
*	*	*	*ped	*	*
8GG/ 8G	.	.	16b-/LL	.	.
.	.	.	16a/	.	.
16G\LL 16B- 16d	.	.	16g/	.	.
16G\JJ 16B- 16d	.	.	16f#X/JJ	.	.
8G\L 8B- 8d	.	.	8g\L	.	.
8G^\ 8B- 8c#X	.	.	8gg\	.	.
8G^\ 8B- 8en	.	.	8dd\	.	.
8G^\J 8B- 8d	.	.	8b-\J	.	.
*	*	*	*Xped	*	*
=42	=42	=42	=42	=42	=42
*	*	*	*ped	*	*
8CC\L 8C	.	.	8c/L 8en 8g 8cc	.	.
8CC\J	.	.	(<16C</L	.	.
.	.	.	16En</JJ	.	.
8EEn\L	.	.	16G</LL	.	.
.	.	.	16c/	.	.
8GG\J	.	.	16e/	.	.
.	.	.	16g/JJ)	.	.
8C/L	.	.	8.e/L 8.cc	.	.
8CC/J	.	.	.	.	.
.	.	.	16b-/Jk	.	.
=43	=43	=43	=43	=43	=43
8FF\L 8F	.	.	16a/LL	.	<
.	.	.	16g/	.	.
8F\J 8A 8e-	.	.	16f/	.	.
.	.	.	16en/JJ	.	.
8F\L 8A 8d	.	.	(16f\LL	.	.
.	.	.	16a\	.	.
8F\ 8A 8c	.	.	16cc\	.	.
.	.	.	16een\JJ	.	.
8F\ 8A 8B-	.	.	16ff\LL	.	.
.	.	.	16aa\	.	.
8F\J 8A	.	.	16ccc\	.	.
.	.	.	16eee-\JJ)	.	.
*	*	*	*Xped	*	*
!!LO:LB:g=original	!	!	!	!	!
=44	=44	=44	=44	=44	=44
*	*	*	*ped	*	*
4.FF/ 4.F	.	.	4.ff\ 4.aa 4.eee- 4.fff	.	.
*clefG2	*	*	*	*	*
16f/LL 16cc	.	.	16ff\LL 16aa 16eee- 16fff	.	ff
16f/JJ 16cc	.	.	16ff\JJ 16aa 16eee- 16fff	.	.
8f/L 8cc	.	.	8ff\L 8aa 8eee- 8fff	.	.
16f/L 16cc	.	.	16ff\L 16aa 16eee- 16fff	.	.
16f/JJ 16cc	.	.	16ff\JJ 16aa 16eee- 16fff	.	.
=45	=45	=45	=45	=45	=45
4.f/ 4.cc	.	.	4.ff\ 4.aa 4.eee- 4.fff	.	.
8f/L 8cc	.	.	16ff\LL 16aa 16eee- 16fff	.	.
.	.	.	16ff\JJ 16aa 16eee- 16fff	.	.
8f/ 8cc	.	.	8ff\L 8aa 8eee- 8fff	.	.
8f/J 8cc	.	.	16ff\L 16aa 16eee- 16fff	.	.
.	.	.	16ff\JJ 16aa 16eee- 16fff	.	.
*	*	*	*Xped	*	*
=46	=46	=46	=46	=46	=46
*	*	*	*ped	*	*
*	*	*	*8va	*	*
!	!	!	!LO:TX:t=P:problem: f dopisane ołówkiem	!	!
!	!	!	!LO:TX:a:t=f:color=grey	!	!
2.Bn^>:/ 2.f: 2.a-X: 2.dd:	.	.	[4ffff\	2	.
.	.	.	16ffff\LL]	.	.
.	.	.	16gggg\	.	.
.	.	.	16ffff\	.	.
.	.	.	16gggg\JJ	.	.
.	.	.	16ffff\LL	.	.
.	.	.	16gggg\	.	.
.	.	.	16ffff\	.	.
.	.	.	16gggg\JJ	.	.
*clefF4	*	*	*Xped	*	*
=47	=47	=47	=47	=47	=47
8F^^\ 8c 8e- 8a	.	.	16ffff\LL	2	.
!	!	!	!LO:TX:t=P:problem: g dopisane ołówkiem	!	!
!	!	!	!LO:TX:a:t=g:color=grey	!	!
.	.	.	16gggg-X\	.	fz
!	!	!	!LO:TX:t=P:problem: a dopisane ołówkiem	!	!
!	!	!	!LO:TX:a:t=a:color=grey	!	!
8r	.	.	16aaaa\	5	.
.	.	.	16ggggn\JJ	.	p
4r	.	.	16ffff\LL	.	.
.	.	.	16gggg-X\	.	.
.	.	.	16ffff\	.	.
.	.	.	16ffff-X\JJ	.	.
4r	.	.	16eeee-\LL	.	.
.	.	.	16cccc\	.	.
.	.	.	16aaa\	.	.
.	.	.	16gggn\JJ	.	.
*	*	*	*X8va	*	*
!!LO:LB:g=original	!	!	!	!	!
=48	=48	=48	=48	=48	=48
2.r	.	.	(16fff\LL	.	>
.	.	.	16ggg-X\	.	.
.	.	.	16aaa\	.	.
.	.	.	16gggn\JJ	.	.
.	.	.	16fff\LL	.	.
.	.	.	16ggg-y\	.	.
.	.	.	16fff\	.	.
.	.	.	16fff-X\JJ	.	.
.	.	.	16eee-\LL	.	.
.	.	.	16ccc\	.	.
.	.	.	16aa\	.	.
.	.	.	16ggn\JJ	.	.
=49	=49	=49	=49	=49	=49
2.r	.	.	16ff\LL	.	.
!	!	!	!LO:TX:b:i:t=ritardando	!	!
.	.	.	16gg-X\	.	.
.	.	.	16aa\	.	.
.	.	.	16ggn\JJ	.	.
.	.	.	16ff\LL	.	.
.	.	.	16gg-X\	.	.
.	.	.	16ee-\	.	.
.	.	.	16cc\JJ	.	.
.	.	.	16a/LL	1	.
.	.	.	16g-X/	4	.
.	.	.	16f/	3	.
.	.	.	16e-/JJ)	.	]]
=50	=50	=50	=50	=50	=50
*	*	*	*ped	*	*
!	!	!	!LO:TX:a:B:t=Tempo I.o	!	!
8BBB-/L 8BB-	.	.	8.d/L	.	p
(8B-\J	.	.	.	.	.
.	.	.	32f/LL	.	.
.	.	.	32f/JJJ	.	.
8F\L 8d	.	.	4.b-/	.	.
8B-\	.	.	.	.	.
8F\ 8d	.	.	.	.	.
8B-\J)	.	.	8f/	.	.
*	*	*	*Xped	*	*
=51	=51	=51	=51	=51	=51
.	.	.	8qa/	.	.
*	*	*	*ped	*	*
(8EE-/L	.	.	(16g/LL	.	.
.	.	.	16f#X/	.	.
8G\J	.	.	16g/	.	.
.	.	.	16a/JJ)	.	.
8E-\L 8c	.	.	4.f#/	.	.
8G\	.	.	.	.	.
8E-\ 8c	.	.	.	.	.
8G\J)	.	.	8f#/	.	.
*	*	*	*Xped	*	*
=52	=52	=52	=52	=52	=52
*	*	*	*ped	*	*
(8FF/L	.	.	8fn/L	.	.
8e-\J	.	.	16a/L	.	.
.	.	.	16a/JJ	.	.
8A\L 8f	.	.	8cc\L	.	.
8F\ 8e-	.	.	8bn\	.	.
8A\ 8f	.	.	8cc\	.	.
8F\J) 8e-	.	.	8cc#X\J	.	.
*	*	*	*Xped	*	*
=53	=53	=53	=53	=53	=53
.	.	.	8qee-/	.	.
*	*	*	*ped	*	*
(8BBB-/L 8BB-	.	.	(16dd\LL	.	.
.	.	.	16cc#X\	.	.
8B-\J	.	.	16dd\	.	.
.	.	.	16b-\JJ	.	.
8F\L 8d	.	.	4.f/	.	.
8B-\	.	.	.	.	.
8F\ 8d	.	.	.	.	.
8B-\J)	.	.	8b-\)	.	.
*	*	*	*Xped	*	*
=54	=54	=54	=54	=54	=54
.	.	.	(8qa/	.	.
*	*	*	*ped	*	*
(8DD/L	.	.	8b-\L)	.	.
.	.	.	(8qgg/	.	.
8B-\J	.	.	8ff\)	.	.
.	.	.	(8qa/	.	.
8F\L 8d	.	.	8b-\)	.	.
.	.	.	(8qgg/	.	.
8B-\J	.	.	8ff\J)	.	.
.	.	.	(8qa/	.	.
8F\L 8d	.	.	8b-\L)	.	.
.	.	.	(8qgg/	.	.
8B-\J)	.	.	8ff\J)	.	.
*	*	*	*Xped	*	*
=55	=55	=55	=55	=55	=55
.	.	.	(8qbn/	.	.
*	*	*	*ped	*	*
(8EE-/L	.	.	8cc\L)	.	.
.	.	.	(8qff/	.	.
8G\J	.	.	16ee-\L)	.	.
.	.	.	16cc\JJ	.	.
8E-\L 8c	.	.	4.g/	.	.
8G\	.	.	.	.	.
8E-\ 8c	.	.	.	.	.
8G\J)	.	.	8f#X/	.	.
*	*	*	*Xped	*	*
!!LO:LB:g=original	!	!	!	!	!
=56	=56	=56	=56	=56	=56
.	.	.	8qg/	.	.
*	*	*	*ped	*	*
(8FF/L	.	.	(16f/LL	.	.
.	.	.	16en/	.	.
8F\J	.	.	16f/	.	.
.	.	.	16g/JJ	.	.
8B-\L 8d	.	.	16a/LL	.	.
.	.	.	16b-/	.	.
8F\J	.	.	16bn/	.	.
*	*	*	*Xped	*	*
.	.	.	16cc/JJ)	.	.
8A\L 8c	.	.	8.e-X/L 8.a 8.dd	.	.
8F\J)	.	.	.	.	.
.	.	.	16cc/Jk	.	.
=57	=57	=57	=57	=57	=57
*>A1	*>A1	*>A1	*>A1	*>A1	*>A1
*	*	*	*ped	*	*
(8BB-/L	.	.	8d/L 8b-	.	.
8FF/J) 8F	.	.	(16e-/L 16a 16dd	.	.
.	.	.	16cc/JJ	.	.
*	*	*	*Xped	*	*
*	*	*	*ped	*	*
(8BB-/L	.	.	8d/L) 8b-	.	.
8FF/J) 8F	.	.	(16e-/L 16a 16dd	.	.
.	.	.	16cc/JJ	.	.
4BB-/	.	.	4d/) 4b-	.	.
*	*	*	*Xped	*	*
=58:|!	=58:|!	=58:|!	=58:|!	=58:|!	=58:|!
*>A2	*>A2	*>A2	*>A2	*>A2	*>A2
(8BB-/L	.	.	8d/L 8b-	.	.
8FF/J) 8F	.	.	16e-/L 16a 16dd	.	.
.	.	.	16cc/JJ	.	.
*	*	*	*ped	*	*
4BBB-/ 4BB-	.	.	4d/ 4b-	.	ff
4B-\ 4f 4a-X	.	.	4b-\ 4dd 4bb-	.	.
*	*	*	*Xped	*	*
=59||	=59||	=59||	=59||	=59||	=59||
*>B	*>B	*>B	*>B	*>B	*>B
*	*	*	*ped	*	*
!	!	!	!LO:TX:b:i:t=imponente. con solenne	!	!
8EE-\L 8E-	.	.	8g/L 8b-	.	.
8B-\J	.	.	8g/J 8b-	.	.
(8e-\L 8g	.	.	(4.b-\ 4.gg	.	.
8B-\)	.	.	.	.	.
!LO:N:vis=8.	!	!	!	!	!
(8e-\ 8g	.	.	.	.	.
8B-\J)	.	.	8a-X\) 8ff	.	.
*	*	*	*Xped	*	*
!!LO:PB:g=original	!	!	!	!	!
=60	=60	=60	=60	=60	=60
*	*	*	*ped	*	*
8EE-/L 8E-	.	.	(8g\L 8ee-	.	.
8B-/J	.	.	8g\J)	.	.
8e-\L	.	.	(4.a-X/ 4.cc	.	.
(8BB-\J 8B-	.	.	.	.	.
8GG/L 8G	.	.	.	.	.
8EE-/J) 8E-	.	.	8g/) 8b-	.	.
*	*	*	*Xped	*	*
=61	=61	=61	=61	=61	=61
*	*	*	*^	*	*
*	*	*	*ped	*	*	*
8BBB-/L 8BB-	.	.	8b-/L	2f\ 2a-X	.	<
8A-X\J	.	.	8b-/J	.	.	.
(8B-\L 8d	.	.	4cc/	.	.	.
8A-\)	.	.	.	.	.	.
(8B-\ 8d	.	.	4dd/	((4f\ 4a-	.	[
8A-\J)	.	.	.	.	.	.
*	*	*	*Xped	*	*	*
=62	=62	=62	=62	=62	=62	=62
*	*	*	*ped	*	*	*
8EE-/L 8E-	.	.	8ee-/L	2g\))	.	.
(8B-/J	.	.	8ff/J	.	.	.
8e-\L)	.	.	4gg/	.	.	.
(8BB-\J 8B-	.	.	.	.	.	.
8GG/L 8G	.	.	4ee-/	4g\	.	.
8EE-/J) 8E-	.	.	.	.	.	.
*	*	*	*Xped	*	*	*
*	*	*	*v	*v	*	*
=63	=63	=63	=63	=63	=63
*	*	*	*ped	*	*
8EE-/L	.	.	8g/L 8b-	.	.
8B-\J	.	.	8g/J 8b-	.	.
(8e-\L 8g	.	.	4.b-\ 4.gg	.	.
8B-\)	.	.	.	.	.
(8e-\ 8g	.	.	.	.	.
8B-\J)	.	.	8a-X\ 8ff	.	.
*	*	*	*Xped	*	*
=64	=64	=64	=64	=64	=64
*	*	*	*ped	*	*
8EE-/L 8E-	.	.	8g\L 8ee-	.	.
8B-/J	.	.	8g\J	.	.
8e-\L	.	.	4.a-X/ 4.cc	.	.
(8BB-\J 8B-	.	.	.	.	.
8GG/L 8G	.	.	.	.	.
8EE-/J) 8E-	.	.	8g/ 8b-	.	.
*	*	*	*Xped	*	*
!!LO:LB:g=original	!	!	!	!	!
=65	=65	=65	=65	=65	=65
*	*	*	*^	*	*
*	*	*	*ped	*	*	*
8BBB-/L 8BB-	.	.	8b-/L	2f\ 2a-X	.	<
8A-X\J	.	.	8b-/J	.	.	.
(8B-\L 8d	.	.	4cc/	.	.	.
8A-\)	.	.	.	.	.	.
(8B-\ 8d	.	.	(4dd/	4f\ 4a-	.	[
8A-\J)	.	.	.	.	.	.
*	*	*	*Xped	*	*	*
*	*	*	*v	*v	*	*
=66	=66	=66	=66	=66	=66
*	*	*	*ped	*	*
8EE-/L 8E-	.	.	(8g\L) 8ee-	.	.
8B-/J	.	.	8ff\	.	<
8e-\L	.	.	8gg\	.	.
8BB-\J 8B-	.	.	8aa-X\	.	.
8GG/L 8G	.	.	8aan\	.	.
8EE-/J 8E-	.	.	8bb-\J)	.	.
*	*	*	*Xped	*	*
=67	=67	=67	=67	=67	=67
*	*	*	*ped	*	*
8BBB-/L 8BB-	.	.	(8aa-X^\L 8ccc	.	ff
8B-/J	.	.	8bb-\J)	.	.
8d\L 8f 8a-X	.	.	4.dd\ 4.ff	.	.
8BB-\J 8B-	.	.	.	.	.
8AA-X\L 8A-X	.	.	.	.	.
8FF\J 8F	.	.	8dd\ 8ff	.	.
*	*	*	*Xped	*	*
=68	=68	=68	=68	=68	=68
*	*	*	*ped	*	*
8EE-/L 8E-	.	.	(8ff^\L 8aa-X	.	.
8B-/J	.	.	8gg\J)	.	.
8e-\L 8g	.	.	4.b-\ 4.ee-	.	.
8BB-\J 8B-	.	.	.	.	.
8GG/L 8G	.	.	.	.	.
8EE-/J 8E-	.	.	8a-X\ 8cc	.	.
*	*	*	*Xped	*	*
=69	=69	=69	=69	=69	=69
*	*	*	*^	*	*
*	*	*	*ped	*	*	*
8BBB-/L 8BB-	.	.	8b-/L	2f\ 2a-X	.	.
8A-X/J	.	.	8b-/J	.	.	.
8B-\L 8d	.	.	4cc/	.	.	.
8A-\	.	.	.	.	.	.
8B-\ 8d	.	.	4dd/	4f\ 4a-	.	.
8A-\J	.	.	.	.	.	.
*	*	*	*Xped	*	*	*
*	*	*	*v	*v	*	*
!!LO:LB:g=original	!	!	!	!	!
=70	=70	=70	=70	=70	=70
*	*	*	*ped	*	*
8EE-/L 8E-	.	.	8g\L 8ee-	.	.
8B-/J	.	.	8ff\J	.	.
8e-\L	.	.	4ee-\ 4gg	.	.
8BB-\J 8B-	.	.	.	.	.
8GG/L 8G	.	.	4gg\ 4bb-	.	.
8EE-/J 8E-	.	.	.	.	.
*	*	*	*Xped	*	*
=71	=71	=71	=71	=71	=71
*	*	*	*ped	*	*
8BBB-/L 8BB-	.	.	(8aa-X\L 8ccc	.	.
8B-\J	.	.	8bb-\J)	.	.
8d\L 8f 8a-X	.	.	4.dd\ 4.ff	.	.
8BB-\J 8B-	.	.	.	.	.
8AA-X/L 8A-X	.	.	.	.	.
8FF/J 8F	.	.	8dd\ 8ff	.	.
*	*	*	*Xped	*	*
=72	=72	=72	=72	=72	=72
*	*	*	*ped	*	*
8EE-/L 8E-	.	.	(8ff^\L 8aa-X	.	.
8B-/J	.	.	8gg\J)	.	.
8e-\L 8g	.	.	4.b-\ 4.ee-	.	.
8BB-\J 8B-	.	.	.	.	.
8GG/L 8G	.	.	.	.	.
8EE-/J 8E-	.	.	8a-X\ 8cc	.	.
*	*	*	*Xped	*	*
=73	=73	=73	=73	=73	=73
*	*	*	*^	*	*
*	*	*	*ped	*	*	*
8BBB-/L 8BB-	.	.	8b-/L	2f\ 2a-X	.	.
8A-X/J	.	.	8b-/J	.	.	.
8B-\L 8d	.	.	4cc/	.	.	.
8A-\	.	.	.	.	.	.
8B-\ 8d	.	.	4dd/	4f\ 4a-	.	.
8A-\J	.	.	.	.	.	.
*	*	*	*Xped	*	*	*
*	*	*	*v	*v	*	*
=74	=74	=74	=74	=74	=74
*	*	*	*ped	*	*
8EE-\L 8E-	.	.	(4.g\ 4.ee-	.	.
8B-\	.	.	.	.	.
8e-\J 8g	.	.	.	.	.
8r	.	.	8b-\)	.	.
!	!	!	!LO:TX:b:i:t=leggiero	!	!
*	*	*	*Xtuplet	*above	*
4r	.	.	(20g\LL	.	.
.	.	.	20b-\	.	.
.	.	.	20ee-\	5	.
.	.	.	20gg\	1	.
.	.	.	20bb-\JJ)	4	.
*	*	*	*Xped	*	*
!!LO:LB:g=original	!	!	!	!	!
=75	=75	=75	=75	=75	=75
*	*	*	*ped	*	*
8BBB-/L 8BB-	.	.	(8aa-X^\L 8ccc	.	.
8B-\J	.	.	8bb-\J)	.	.
8d\L 8f 8a-X	.	.	4.dd\ 4.ff	.	.
8BB-\J 8B-	.	.	.	.	.
8AA-X/L 8A-X	.	.	.	.	.
8FF/J 8F	.	.	8dd\ 8ff	.	.
*	*	*	*Xped	*	*
=76	=76	=76	=76	=76	=76
*	*	*	*ped	*	*
8EE-/L 8E-	.	.	(8ff^\L 8aa-X	.	.
8B-/J	.	.	8gg\J)	.	.
8e-\L 8g	.	.	4.b-\ 4.ee-	.	.
8BB-\J 8B-	.	.	.	.	.
8GG/L 8G	.	.	.	.	.
8EE-/J 8E-	.	.	8a-X\ 8cc	.	.
*	*	*	*Xped	*	*
=77	=77	=77	=77	=77	=77
*	*	*	*^	*	*
*	*	*	*ped	*	*	*
8BBB-/L 8BB-	.	.	8b-/L	2f\ 2a-X	.	.
8A-X/J	.	.	8b-/J	.	.	.
8B-\L 8d	.	.	4cc/	.	.	.
8A-\	.	.	.	.	.	.
8B-\ 8d	.	.	(4dd/	4f\ 4a-	.	.
8A-\J	.	.	.	.	.	.
*	*	*	*Xped	*	*	*
*	*	*	*v	*v	*	*
=78	=78	=78	=78	=78	=78
*	*	*	*ped	*	*
8EE-/L 8E-	.	.	8g\L) 8ee-	.	.
8B-/J	.	.	8ff\J	.	.
8e-\L	.	.	4ee-\ 4gg	.	.
8BB-\J 8B-	.	.	.	.	.
8GG/L 8G	.	.	4gg\ 4bb-	.	.
8EE-/J 8E-	.	.	.	.	.
*	*	*	*Xped	*	*
=79	=79	=79	=79	=79	=79
*	*	*	*ped	*	*
8BBB-/L 8BB-	.	.	(8aa-X\L 8ccc	.	.
8B-/J	.	.	8bb-\J)	.	.
8d\L 8f 8a-X	.	.	4.dd\ 4.ff	.	.
8BB-\J 8B-	.	.	.	.	.
8AA-X/L 8A-X	.	.	.	.	.
8FF/J 8F	.	.	8dd\ 8ff	.	.
*	*	*	*Xped	*	*
!!LO:LB:g=original	!	!	!	!	!
=80	=80	=80	=80	=80	=80
*	*	*	*ped	*	*
8EE-/L 8E-	.	.	(8ff\L 8aa-X	.	.
8B-/J	.	.	8gg\J)	.	.
8e-\L 8g	.	.	4.b-\ 4.ee-	.	.
8BB-\J 8B-	.	.	.	.	.
8GG/L 8G	.	.	.	.	.
8DD-X/J 8D-X	.	.	8b-\ 8ee-	.	.
*	*	*	*Xped	*	*
=81	=81	=81	=81	=81	=81
*	*	*	*ped	*	*
!	!	!	!LO:TX:b:i:t=sforzando	!	!
8CC/L 8C	.	.	8a-X\L 8ee- 8aa-X	.	.
8A-X\J 8c 8e-	.	.	16a-\L 16ee- 16aa-	.	.
.	.	.	16a-\JJ 16ee- 16aa-	.	.
*	*	*	*Xped	*	*
*	*	*	*ped	*	*
8A-\L 8c 8e-	.	.	4.a-\ 4.ee- 4.aa-	.	.
8A-\J 8c 8e-	.	.	.	.	.
8CC-X/L 8C-X	.	.	.	.	.
8B--\J 8e- 8g-X	.	.	8b--\ 8ee- 8bb--	.	.
*	*	*	*Xped	*	*
=82	=82	=82	=82	=82	=82
*	*	*	*ped	*	*
!LO:TX:t=P:problem:kasowniki obok bemoli	!	!	!LO:TX:t=P:problem:kasowniki obok bemoli	!	!
8DD-X/L 8BB-X	.	.	8b-X\L 8ee- 8gg-X 8bb-X	.	.
8B-\J 8e- 8g-X	.	.	16b-\L 16ee- 16gg- 16bb-	.	.
.	.	.	16b-\JJ 16ee- 16gg- 16bb-	.	.
*	*	*	*Xped	*	*
*	*	*	*ped	*	*
8B-\L 8e- 8g-	.	.	4.b-\ 4.ee- 4.gg- 4.bb-	.	.
8B-\J 8e- 8g-	.	.	.	.	.
8BBB--/L 8BB--	.	.	.	.	.
8B--\J 8e- 8g-	.	.	8cc-X\ 8ee- 8gg-X 8ccc-X	.	.
*	*	*	*Xped	*	*
=83	=83	=83	=83	=83	=83
*	*	*	*ped	*	*
!	!	!	!LO:TX:t=P:problem:mixed beam	!	!
4FFF/ 4FF	.	.	8ccn\L 8ee- 8aa 8cccn	.	.
.	.	.	16F/L 16f	.	.
.	.	.	16F/JJ 16f	.	.
4r	.	.	8F^/L 8f	.	.
.	.	.	8c^/ 8cc	.	.
4r	.	.	8f^/ 8ff	.	.
.	.	.	8c^/J 8cc	.	.
*	*	*	*Xped	*	*
!!LO:PB:g=original	!	!	!	!	!
=84	=84	=84	=84	=84	=84
*	*	*	*ped	*	*
4FFF/ 4FF	.	.	32F/LLL 32f	.	ff
.	.	.	32G-X/	.	.
.	.	.	32F/	.	.
.	.	.	32G-/	.	.
.	.	.	32F/	.	.
.	.	.	32G-/	.	.
.	.	.	32F/	.	.
.	.	.	32G-/JJJ	.	.
*	*	*	*tremolo	*	*
*	*	*	*Xped	*	*
4GGGn/ 4GGn	.	.	32F/LLL	.	.
.	.	.	32G-/	.	.
.	.	.	32F/	.	.
.	.	.	32G-/	.	.
.	.	.	32F/	.	.
.	.	.	32G-/	.	.
.	.	.	32F/	.	.
.	.	.	32G-/	.	.
4AAA/ 4AA	.	.	32F/	.	.
.	.	.	32G-/	.	.
.	.	.	32F/	.	.
.	.	.	32G-/	.	.
.	.	.	32F/	.	.
.	.	.	32G-/	.	.
.	.	.	32F/	.	.
.	.	.	32G-/JJJ	.	.
=85||	=85||	=85||	=85||	=85||	=85||
*k[b-e-a-d-g-]	*	*	*k[b-e-a-d-g-]	*	*
*	*	*	*ped	*	*
4.BBB-/ 4.BB-	.	.	4.B-^/	.	.
8BBB-/L 8BB-	.	.	16B-^/LL	.	.
.	.	.	16B-^/J	.	.
8BBB-/ 8BB-	.	.	8B-^/	.	.
8BBB-/J 8BB-	.	.	8B-^/J	.	.
=86	=86	=86	=86	=86	=86
4.DD-/ 4.D-	.	.	4.d-^/	.	.
8BBB-/L 8BB-	.	.	16B-^/LL	.	.
.	.	.	16B-^/J	.	.
8BBB-/ 8BB-	.	.	8B-^/	.	.
8BBB-/J 8BB-	.	.	8B-^/J	.	.
=87	=87	=87	=87	=87	=87
8GGG-/L 8GG-	.	.	8G-/L	.	.
8BBB-/J 8BB-	.	.	16B-/L	.	.
*	*	*	*Xped	*	*
.	.	.	16B-/JJ	.	.
*	*	*	*ped	*	*
8FFF/L 8FF	.	.	8G-/L	.	.
8BBB-/J 8BB-	.	.	16B-/L	.	.
*	*	*	*Xped	*	*
.	.	.	16B-/JJ	.	.
*	*	*	*ped	*	*
8EEEn/L 8EEn	.	.	8En/L	.	.
8BBB-/J 8BB-	.	.	16B-/L	.	.
.	.	.	16B-/JJ	.	.
*	*	*	*Xped	*	*
!!LO:LB:g=original	!	!	!	!	!
=88	=88	=88	=88	=88	=88
*	*	*	*ped	*	*
4FFF/ 4FF	.	.	4F/	.	.
.	.	.	(>8qf/	.	.
4F:\ 4An: 4c: 4e-: 4f:	.	.	8ff'~\L)	.	>
*	*	*	*Xped	*	*
.	.	.	8ee-~'\	.	.
4r	.	.	8dd-~'\	.	.
.	.	.	8cc~'\J	.	]]
=89	=89	=89	=89	=89	=89
*	*	*	*ped	*	*
!	!	!	!LO:TX:b:i:t=dol.	!	!
!LO:TX:t=P:problem:mixed beam	!	!	!LO:TX:a:i:t=patimente	!	!
8BBB-/L 8BB-	.	.	(8.b-\L	.	p
16B-\L 16d- 16f	.	.	.	.	.
16B-\JJ 16d- 16f	.	.	16cc\Jk	.	.
8B-\L 8d- 8f	.	.	4.dd-\)	.	.
8B-\ 8d- 8f	.	.	.	.	.
8B-\ 8d- 8f	.	.	.	.	.
8B-\J 8d- 8f	.	.	8ee-\	.	.
*	*	*	*Xped	*	*
=90	=90	=90	=90	=90	=90
.	.	.	(16qqff/LL	.	.
!LO:TX:t=P:problem:mixed beam	!	!	!	!	!
.	.	.	16qqgg-/JJ	.	.
*	*	*	*ped	*	*
8CC-X/L 8C-X	.	.	8.ff\L)	.	.
16A-\L 16d- 16f	.	.	.	.	.
16A-\JJ 16d- 16f	.	.	16een\Jk	.	.
8A-\L 8d- 8f	.	.	4.ff\	.	.
8A-\ 8d- 8f	.	.	.	.	.
8A-\ 8d- 8f	.	.	.	.	.
8A-\J 8d- 8f	.	.	8dd-\	.	.
*	*	*	*Xped	*	*
=91	=91	=91	=91	=91	=91
*	*	*	*ped	*	*
8DD-/ 8D-	.	.	(8gg-\L	.	.
!	!	!	!LO:TX:b:i:t=con espressivo	!	!
*clefG2	*	*	*	*	*
16e-/LL 16g- 16b-	.	.	8aa-\J	.	.
16e-/JJ 16g- 16b-	.	.	.	.	.
8e-/L 8g- 8b-	.	.	8bb-\L)	.	.
*	*	*	*tuplet	*	*
!	!	!	!LO:TUP:a:problem:klamra łukowa	!	!
8e-/ 8g- 8b-	.	.	24bb-\L	.	.
.	.	.	24ccc\	.	.
.	.	.	24bb-\JJ	.	.
8e-/ 8g- 8b-	.	.	8aa-\L	.	.
8e-/J 8g- 8b-	.	.	8gg-\J	.	.
*clefF4	*	*	*Xped	*	*
!!LO:LB:g=original	!	!	!	!	!
=92	=92	=92	=92	=92	=92
*	*	*	*ped	*	*
8CC/ 8C	.	.	8.ff\L	.	.
*clefG2	*	*	*	*	*
16en/LL 16gn 16cc	.	.	.	.	.
16e/JJ 16g 16cc	.	.	16een\Jk	.	.
8e/L 8g 8cc	.	.	(4.ggn\	.	.
8e/ 8g 8cc	.	.	.	.	.
8e/ 8g 8cc	.	.	.	.	.
8e/J 8g 8cc	.	.	8cc\)	.	.
*clefF4	*	*	*Xped	*	*
=93	=93	=93	=93	=93	=93
*	*	*	*ped	*	*
8AAAn/ 8AAn	.	.	(8ee-\L	.	.
*clefG2	*	*	*	*	*
16c/LL 16e- 16g- 16an	.	.	8ff\J	.	.
16c/JJ 16e- 16g- 16a	.	.	.	.	.
8c/L 8e- 8g- 8a	.	.	8gg-\L)	.	.
!	!	!	!LO:TUP:a:problem:klamra łukowa	!	!
8c/ 8e- 8g- 8a	.	.	24gg-\L	.	.
.	.	.	24aa-\	.	.
.	.	.	24gg-\JJ	.	.
8c/ 8e- 8g- 8a	.	.	8ff\L	.	.
8c/J 8e- 8g- 8a	.	.	8ee-\J	.	.
*clefF4	*	*	*Xped	*	*
=94	=94	=94	=94	=94	=94
*	*	*	*ped	*	*
!LO:TX:t=P:problem:mixed beam	!	!	!	!	!
8BBB-/L 8BB-	.	.	8.dd-\L	.	.
16B-\L 16d- 16f	.	.	.	.	.
16B-\JJ 16d- 16f	.	.	16cc\Jk	.	.
8B-\L 8d- 8f	.	.	4.dd-\	.	.
8B-\ 8d- 8f	.	.	.	.	.
8B-\ 8d- 8f	.	.	.	.	.
8B-\J 8d- 8f	.	.	[8b-\	.	.
*	*	*	*Xped	*	*
=95	=95	=95	=95	=95	=95
*	*	*	*ped	*	*
!LO:TX:t=P:problem:mixed beam	!	!	!	!	!
8GGGn/L 8GGn	.	.	8b-\L]	.	.
16B-\L 16d- 16gn	.	.	16b-\L	.	.
16B-\JJ 16d- 16g	.	.	16b-\JJ	.	.
8B-\L 8d- 8g	.	.	(8dd-\L	.	<
8B-\ 8d- 8g	.	.	8cc\	.	.
8B-\ 8d- 8g	.	.	8b-\	.	.
8B-\J 8d- 8g	.	.	8dd-\J)	.	[[
*	*	*	*Xped	*	*
!!LO:LB:g=original	!	!	!	!	!
=96	=96	=96	=96	=96	=96
8FFF/L 8FF	.	.	(8f\L	.	.
8F^^\J 8c	.	.	16f\L 16ff	.	<
.	.	.	16f\JJ 16ff	.	.
8G-^^\L 8c	.	.	8f^\L 8een	.	.
8Gn\ 8c	.	.	16f\L 16ee-X	.	.
.	.	.	16f\JJ 16ee-	.	.
8A-^^\ 8c	.	.	8f^\L 8dd-	.	.
8An\J 8c	.	.	16f\L 16cc	.	.
.	.	.	16f\JJ) 16cc	.	[[
=97	=97	=97	=97	=97	=97
*	*	*	*ped	*	*
!LO:TX:t=P:problem:mixed beam	!	!	!	!	!
8BBB-/L 8BB-	.	.	(8.b-\L	.	mf
16B-\L 16d- 16f	.	.	.	.	.
16B-\JJ 16d- 16f	.	.	16cc\Jk	.	.
8B-\ 8d- 8f	.	.	4.dd-\)	.	.
8FF/L 8F	.	.	.	.	.
8DD-/ 8D-	.	.	.	.	.
8BBB-/J 8BB-	.	.	8ee-\	.	.
*	*	*	*Xped	*	*
=98	=98	=98	=98	=98	=98
*	*	*	*ped	*	*
!LO:TX:t=P:problem:mixed beam	!	!	!	!	!
8CC-X/L 8C-X	.	.	8.ff\L	.	.
16A-\L 16d- 16f	.	.	.	.	.
16A-\JJ 16d- 16f	.	.	(16een\Jk	.	.
8A-\ 8d- 8f	.	.	4.ff\)	.	.
8AA-/L 8A-	.	.	.	.	.
8FF/ 8F	.	.	.	.	.
8DD-/J 8D-	.	.	8dd-\	.	.
*	*	*	*Xped	*	*
=99	=99	=99	=99	=99	=99
*	*	*	*ped	*	*
8DD-/L 8D-	.	.	(8gg-\L	.	.
*clefG2	*	*	*	*	*
16e-/L 16g- 16b-	.	.	8aa-\J	.	.
16e-/JJ 16g- 16b-	.	.	.	.	.
8e-/ 8g- 8b-	.	.	8bb-\L	.	.
*clefF4	*	*	*	*	*
!	!	!	!LO:TUP:a:problem:klamra łukowa	!	!
8BB-/L 8B-	.	.	24bb-\L	.	.
.	.	.	24ccc\	.	.
.	.	.	24bb-\JJ	.	.
8GG-/ 8G-	.	.	8aa-\L	.	.
8EE-/J 8E-	.	.	8gg-\J)	.	.
*	*	*	*Xped	*	*
!!LO:LB:g=original	!	!	!	!	!
=100	=100	=100	=100	=100	=100
*	*	*	*ped	*	*
8CC/L 8C	.	.	8.ff\L	.	.
*clefG2	*	*	*	*	*
16en/L 16gn 16cc	.	.	.	.	.
16e/JJ 16g 16cc	.	.	16een\Jk	.	.
8e/ 8g 8cc	.	.	(4.ggn\	.	.
*clefF4	*	*	*	*	*
8GGn/L 8Gn	.	.	.	.	.
8EEn/ 8En	.	.	.	.	.
8CC/J 8C	.	.	8cc\)	.	.
*	*	*	*Xped	*	*
=101	=101	=101	=101	=101	=101
*	*	*	*ped	*	*
8AAAn/L 8AAn	.	.	(8ee-\L	.	.
*clefG2	*	*	*	*	*
16c/L 16e- 16g- 16an	.	.	8ff\J	.	.
16c/J 16e- 16g- 16a	.	.	.	.	.
8c/J 8e- 8g- 8a	.	.	8gg-\L	.	.
*clefF4	*	*	*	*	*
!	!	!	!LO:TUP:a:problem:klamra łukowa	!	!
8GG-/L 8G-	.	.	24gg-\L	.	.
.	.	.	24aa-\	.	.
.	.	.	24gg-\JJ	.	.
8EE-/ 8E-	.	.	8ff\L	.	.
8CC/J 8C	.	.	8ee-\J)	.	.
*	*	*	*Xped	*	*
=102	=102	=102	=102	=102	=102
*	*	*	*ped	*	*
!LO:TX:t=P:problem:mixed beam	!	!	!	!	!
8BBB-/L 8BB-	.	.	8.dd-\L	.	.
16B-\L 16d- 16f	.	.	.	.	.
16B-\JJ 16d- 16f	.	.	16cc\Jk	.	.
8B-\ 8d- 8f	.	.	4.dd-\	.	.
8FF/L 8F	.	.	.	.	.
8DD-/ 8D-	.	.	.	.	.
8BBB-/J 8BB-	.	.	[8b-\	.	.
*	*	*	*Xped	*	*
=103	=103	=103	=103	=103	=103
*	*	*	*ped	*	*
8GGGn/L 8GGn	.	.	8b-\L]	.	.
16Gn 16B-\L 16d- 16e	.	.	16b-\L	.	.
16Gny 16B-\JJ 16d- 16e	.	.	16b-\JJ	.	.
8Gny 8B-\ 8d- 8e	.	.	(8dd-\L	.	.
8DD-/L 8D-	.	.	8cc\	.	.
8BBB-/ 8BB-	.	.	8b-\	.	.
8GGG/J 8GG	.	.	8dd-\J)	.	.
*	*	*	*Xped	*	*
!!LO:PB:g=original	!	!	!	!	!
=104	=104	=104	=104	=104	=104
*	*	*	*ped	*	*
8FFF/L 8FF	.	.	8f\L	.	.
(8F\J 8c	.	.	(16f^\L 16ff	.	.
*	*	*	*Xped	*	*
.	.	.	16f\JJ 16ff	.	.
8G-\L 8c	.	.	8f^\L 8een	.	<
8Gn\ 8c	.	.	16f\L 16ee-X	.	.
.	.	.	16f\JJ 16ee-	.	.
8A-\ 8c	.	.	8f^\L 8dd-	.	.
8An\J 8c	.	.	16f\L 16cc	.	.
.	.	.	16f\JJ 16cc	.	[[
=105	=105	=105	=105	=105	=105
8B-\L) 8d-	.	.	8f/L) 8b-	.	.
(<8BBB-/J 8BB-	.	.	(<16B-/L	.	ff
.	.	.	16B-/JJ	.	.
8CC/L 8C	.	.	8c/L	.	.
8DD-/ 8D-	.	.	16d-/L	.	.
.	.	.	16d-/JJ	.	.
8EE-/ 8E-	.	.	8e-/L	.	.
8EEn/J 8En	.	.	16en/L	.	.
.	.	.	16e/JJ	.	.
=106	=106	=106	=106	=106	=106
8FF\L) 8F	.	.	8f\L)	.	.
(8F\J 8c	.	.	(16f\L 16ff	.	mf
.	.	.	16f\JJ 16ff	.	.
8G-\L 8c	.	.	8f\L 8een	.	.
8Gn\ 8c	.	.	16f\L 16ee-X	.	.
.	.	.	16f\JJ 16ee-	.	.
8A-\ 8c	.	.	8f\L 8dd-	.	.
8An\J 8c	.	.	16f\L 16cc	.	.
.	.	.	16f\JJ 16cc	.	.
=107	=107	=107	=107	=107	=107
8B-\L) 8d-	.	.	8f/L) 8b-	.	.
(8BBB-/J 8BB-	.	.	(16B-/L	.	ff
.	.	.	16B-/JJ	.	.
8CC/L 8C	.	.	8c/L	.	.
8DD-/ 8D-	.	.	16d-/L	.	.
.	.	.	16d-/JJ	.	.
8EE-/ 8E-	.	.	8e-/L	.	.
8EEn/J) 8En	.	.	16en/L	.	.
.	.	.	16e/JJ)	.	.
!!LO:LB:g=original	!	!	!	!	!
=108	=108	=108	=108	=108	=108
*	*	*	*ped	*	*
4FF/ 4F	.	.	8f\L 8an 8cc	.	.
.	.	.	16f\L 16ff	.	<
.	.	.	16f\JJ 16ff	.	.
4CC/ 4C	.	.	8a\L 8cc 8ee- 8ff	.	.
.	.	.	16a\L 16aan	.	.
.	.	.	16a\JJ 16aa	.	.
4FFF/ 4FF	.	.	8cc\L 8ee- 8ff 8aa	.	.
.	.	.	16cc\L 16ccc	.	.
.	.	.	16cc\JJ 16ccc	.	[[
*	*	*	*Xped	*	*
=109	=109	=109	=109	=109	=109
*	*	*	*ped	*	*
!LO:TX:t=P:problem:mixed beam	!	!	!	!	!
8BBB-/L 8BB-	.	.	(8.b-\L 8.dd- 8.ff 8.bb-	.	fff
16B-\L 16d- 16f	.	.	.	.	.
16B-\JJ 16d- 16f	.	.	16cc\Jk 16ccc	.	.
8B-\ 8d- 8f	.	.	4.dd-\ 4.ddd-	.	.
8FF/L 8F	.	.	.	.	.
8DD-/ 8D-	.	.	.	.	.
8BBB-/J 8BB-	.	.	8ee-\ 8eee-	.	.
*	*	*	*Xped	*	*
=110	=110	=110	=110	=110	=110
*	*	*	*ped	*	*
!LO:TX:t=P:problem:mixed beam	!	!	!	!	!
8BBB-/L 8BB-	.	.	8.ff\L 8.fff	.	.
16B-\L 16d- 16f	.	.	.	.	.
16B-\JJ 16d- 16f	.	.	16een\Jk 16eeen	.	.
8B-\ 8d- 8f	.	.	4.ff\ 4.fff	.	.
8FF/L 8F	.	.	.	.	.
8DD-/ 8D-	.	.	.	.	.
8BBB-/J 8BB-	.	.	8dd-\ 8ddd-	.	.
*	*	*	*Xped	*	*
=111	=111	=111	=111	=111	=111
*	*	*	*ped	*	*
*	*	*	*8va	*	*
!	!	!	!LO:TX:b:i:t=sempre	!	!
8BBB-\L 8BB-	.	.	8gg-\L 8ggg-	.	.
16G-\L 16B- 16d-	.	.	8aa-\J 8aaa-	.	.
16G-\JJ 16B- 16d-	.	.	.	.	.
8G-\L 8B- 8d-	.	.	8bb-\L 8bbb-	.	ff
!	!	!	!LO:TUP:a:problem:klamra łukowa	!	!
8GG-\J 8G-	.	.	24bb-\L 24bbb-	.	.
.	.	.	24ccc\ 24cccc	.	.
.	.	.	24bb-\JJ 24bbb-	.	.
8EE-/L 8E-	.	.	8aa-\L 8aaa-	.	.
8BBB-/J 8BB-	.	.	8gg-\J) 8ggg-	.	.
*	*	*	*X8va	*	*
*	*	*	*Xped	*	*
!!LO:LB:g=original	!	!	!	!	!
=112	=112	=112	=112	=112	=112
*	*	*	*ped	*	*
!LO:TX:t=P:problem:mixed beam	!	!	!	!	!
8BBB-/L 8BB-	.	.	(8.ff\L 8.bb- 8.ddd- 8.fff	.	.
16B-\L 16d- 16f	.	.	.	.	.
16B-\JJ 16d- 16f	.	.	16een\Jk 16eeen	.	.
8B-\ 8d- 8f	.	.	4.ff\ 4.fff	.	.
8FF/L 8F	.	.	.	.	.
8DD-/ 8D-	.	.	.	.	.
8BBB-/J 8BB-	.	.	8dd-\) 8ddd-	.	.
*	*	*	*Xped	*	*
=113	=113	=113	=113	=113	=113
*	*	*	*ped	*	*
!LO:TX:t=P:problem:mixed beam	!	!	!	!	!
8BBB-/L 8BB-	.	.	(8cc\L 8ff 8aan 8ccc	.	.
16An\L 16c 16e- 16f	.	.	8dd-\J 8ddd-	.	.
16A\JJ 16c 16e- 16f	.	.	.	.	.
8A\ 8c 8e- 8f	.	.	8ee-\L 8eee-	.	.
!	!	!	!LO:TUP:a:problem:klamra łukowa	!	!
8FF/L 8F	.	.	24ee-\L 24eee-	.	.
.	.	.	24ff\ 24fff	.	.
.	.	.	24ee-\JJ 24eee-	.	.
8EE-/ 8E-	.	.	8dd-\L 8ddd-	.	.
8CC/J 8C	.	.	8cc\J) 8ccc	.	.
*	*	*	*Xped	*	*
=114	=114	=114	=114	=114	=114
*	*	*	*ped	*	*
8BBB-\L 8BB-	.	.	(8.dd-\L 8.ddd-	.	.
16F\L 16B- 16d-	.	.	.	.	.
16F\JJ 16B- 16d-	.	.	16cc\Jk 16ccc	.	.
8F\ 8B- 8d-	.	.	4.b-\ 4.bb-	.	.
8FF/L 8F	.	.	.	.	.
8DD-/ 8D-	.	.	.	.	.
8BBB-/J 8BB-	.	.	8b-\) 8bb-	.	.
*	*	*	*Xped	*	*
=115	=115	=115	=115	=115	=115
*	*	*	*ped	*	*
!LO:TX:t=P:problem:mixed beam	!	!	!	!	!
8BBB-/L 8BB-	.	.	(8an\L 8aan	.	.
16An\L 16c 16e- 16f	.	.	8b-\J 8bb-	.	.
16A\JJ 16c 16e- 16f	.	.	.	.	.
8A\ 8c 8e- 8f	.	.	8cc\L 8ccc	.	.
!	!	!	!LO:TUP:a:problem:klamra łukowa	!	!
8FF/L 8F	.	.	24cc\L 24ccc	.	.
.	.	.	24dd-\ 24ddd-	.	.
.	.	.	24cc\JJ 24ccc	.	.
8EE-/ 8E-	.	.	8b-\L 8bb-	.	.
8CC/J 8C	.	.	8a\J) 8aa	.	.
*	*	*	*Xped	*	*
!!LO:LB:g=original	!	!	!	!	!
=116	=116	=116	=116	=116	=116
*	*	*	*ped	*	*
8BBB-\L 8BB-	.	.	(8b-\L 8bb-	.	.
16G-\L 16B- 16d-	.	.	8g-\J 8gg-	.	.
16G-\JJ 16B- 16d-	.	.	.	.	.
8G-\L 8B- 8d-	.	.	4.f\ 4.ff	.	.
8G-\ 8B- 8d-	.	.	.	.	.
8G-\ 8B- 8d-	.	.	.	.	.
8G-\J 8B- 8d-	.	.	8e-\) 8ee-	.	.
*	*	*	*Xped	*	*
=117	=117	=117	=117	=117	=117
.	.	.	(8qB-/	.	>
*	*	*	*ped	*	*
8BBB-\L 8BB-	.	.	8b-/L)	.	.
16G-\L 16B- 16d-	.	.	8g-/J	.	.
16G-\JJ 16B- 16d-	.	.	.	.	.
8G-\L 8B- 8d-	.	.	4f/	.	.
8G-\ 8B- 8d-	.	.	.	.	.
8G-\ 8B- 8d-	.	.	4e-/	.	.
8G-\J 8B- 8d-	.	.	.	.	]]
*	*	*	*Xped	*	*
=118	=118	=118	=118	=118	=118
*	*	*	*ped	*	*
8CC/L 8C	.	.	8.c/L	.	.
8C/J 8Gn 8B-	.	.	.	.	.
.	.	.	(16c/Jk	.	.
8C\L 8G 8B-	.	.	4.cc\)	.	.
8C\ 8G 8B-	.	.	.	.	.
8C\ 8G 8B-	.	.	.	.	.
8C\J 8G 8B-	.	.	8b-\	.	.
*	*	*	*Xped	*	*
=119	=119	=119	=119	=119	=119
*	*	*	*ped	*	*
8CC#X\L	.	.	8a-/L	.	>
16C#X\L 16Gn 16B-	.	.	8gn/J	.	.
16C#\JJ 16G 16B-	.	.	.	.	.
8C#\L 8G 8B-	.	.	4.f/	.	.
8C#\ 8G 8B-	.	.	.	.	.
8C#\ 8G 8B-	.	.	.	.	.
8C#\J 8G 8B-	.	.	8en/	.	]]
*	*	*	*Xped	*	*
=120	=120	=120	=120	=120	=120
.	.	.	(>16qqc#X/LL	.	sfz
.	.	.	16qqdn/JJ	.	.
*	*	*	*ped	*	*
8DDn\L	.	.	4.ee-\)	.	.
8Dn\J 8G- 8B-	.	.	.	.	.
8D\L 8G- 8B-	.	.	.	.	.
8D\ 8G- 8B-	.	.	8ddn\L	.	.
8D\ 8G- 8B-	.	.	8cc\	.	.
8D\J 8G- 8B-	.	.	8b-\J	.	.
*	*	*	*Xped	*	*
!!LO:LB:g=original	!	!	!	!	!
=121	=121	=121	=121	=121	=121
.	.	.	(16qqan/LL	.	>
.	.	.	16qqb-/JJ	.	.
*	*	*	*ped	*	*
8EEn\L	.	.	8a/L)	.	.
8En\J 8Gn 8c	.	.	8gn/J	.	.
8E\L 8G 8c	.	.	4.cc\	.	.
8E\ 8G 8c	.	.	.	.	.
8E\ 8G 8c	.	.	.	.	.
8E\J 8G 8c	.	.	8g/	.	]]
*	*	*	*Xped	*	*
=122	=122	=122	=122	=122	=122
!	!	!	!LO:TX:b:i:t=dol.	!	!
.	.	.	(8qd-/	.	.
(8EE-/L	.	.	(4.ee-\)	.	.
8d-\	.	.	.	.	.
8c\	.	.	.	.	.
8B-\	.	.	8dd-\L	.	.
8A-\	.	.	8cc\	.	.
8Gn\J	.	.	8b-\J	.	.
=123	=123	=123	=123	=123	=123
8F\L	.	.	8a-/L	.	.
8E-\	.	.	8gn/J	.	.
8D-\	.	.	4.f/	.	.
8C\	.	.	.	.	.
8BB-\	.	.	.	.	.
8AA-\J)	.	.	8e-/)	.	.
=124	=124	=124	=124	=124	=124
8GGn/L 8Gn	.	.	8dn/L	.	.
8FF/J 8F	.	.	8e-/J	.	.
8EE-/L 8E-	.	.	4f/	.	.
8DD-/J 8D-	.	.	.	.	.
8CC/L 8C	.	.	4gn/	.	.
8BBB-/J 8BB-	.	.	.	.	.
=125	=125	=125	=125	=125	=125
8AAA-/L 8AA-	.	.	8a-/L	.	.
8A-\J	.	.	8b-/J	.	.
8E-\L 8c	.	.	4bn\	.	.
8A-\	.	.	.	.	.
8E-\ 8c	.	.	4cc\	.	.
8A-\J	.	.	.	.	.
!!LO:PB:g=original	!	!	!	!	!
=126	=126	=126	=126	=126	=126
.	.	.	(8qcc/	.	.
*^	*	*	*	*	*
*	*	*	*	*ped	*	*
8r	[2.CC\	.	.	(4.ddd-\)	.	sfz
*clefG2	*	*	*	*	*	*
8b-/L	.	.	.	.	.	.
8gn/	.	.	.	.	.	.
8en/	.	.	.	8ccc\L	.	>
8c/	.	.	.	8bb-\	.	.
8B-/J	.	.	.	8aa-\J	.	.
*clefF4	*	*	*	*	*	*
=127	=127	=127	=127	=127	=127	=127
8Gn/L	2.CC\]	.	.	8ggn\L	.	.
8En/	.	.	.	8ff\J	.	.
8C/	.	.	.	4.ff-X\	.	.
8BB-/	.	.	.	.	.	.
8GGn/	.	.	.	.	.	.
8EEn/J	.	.	.	8dd-\)	.	]
*	*	*	*	*Xped	*	*
=128	=128	=128	=128	=128	=128	=128
*	*	*	*	*ped	*	*
8r	2.CC\	.	.	(4.cc^\	.	.
8B-/L	.	.	.	.	.	.
8Gn/ 8en	.	.	.	.	.	.
8B-/	.	.	.	8b-/L	.	.
8G/ 8e	.	.	.	8a-/	.	.
8B-/J	.	.	.	8gn/J)	.	.
*	*	*	*	*Xped	*	*
=129	=129	=129	=129	=129	=129	=129
*	*	*	*	*ped	*	*
8r	2.CC\	.	.	(8f/L	.	.
8Gn/L	.	.	.	8en/J	.	.
8En/ 8c	.	.	.	4.gn/	.	.
8G/	.	.	.	.	.	.
8E/ 8c	.	.	.	.	.	.
8G/J	.	.	.	8c/)	.	.
*	*	*	*	*Xped	*	*
!!LO:LB:g=original	!	!	!	!	!	!
=130	=130	=130	=130	=130	=130	=130
*	*	*	*	*ped	*	*
8r	2.CC\	.	.	[4c#X/	.	.
8C#X/L	.	.	.	.	.	.
*	*	*	*	*Xtremolo	*	*
8BB-/ 8Gn	.	.	.	(16c#/LL]	.	.
.	.	.	.	16gn/	.	.
8Cn/	.	.	.	16cn/	.	.
.	.	.	.	16g/JJ	.	.
8BB-/ 8G	.	.	.	16B-/LL	.	.
.	.	.	.	16g/	.	.
8C/J	.	.	.	16c#X/	.	.
.	.	.	.	16g/JJ	.	.
*	*	*	*	*Xped	*	*
=131	=131	=131	=131	=131	=131	=131
*	*	*	*	*ped	*	*
4r	2.CC\	.	.	16cn/LL	.	.
.	.	.	.	16Gn/	.	.
.	.	.	.	16c/	.	.
.	.	.	.	16gn/JJ	.	.
8c/L	.	.	.	16g\LL	.	.
.	.	.	.	16cc\	.	.
8Gn/ 8en	.	.	.	16ggn\	.	.
.	.	.	.	16cc\JJ	.	.
8c/	.	.	.	16g\LL	.	.
.	.	.	.	16cc\	.	.
8G/J 8e	.	.	.	16gg\	.	.
.	.	.	.	16cc\JJ)	.	.
*	*	*	*	*Xped	*	*
*v	*v	*	*	*	*	*
=132	=132	=132	=132	=132	=132
*	*	*	*^	*	*
*	*	*	*ped	*	*	*
8AAA#X/L 8AA#X	.	.	8ff#X/L	4f#X\ 4cc	.	ff
16F#X\L 16A#X 16c 16e-	.	.	8ff#/J	.	.	.
16F#\JJ 16A# 16c 16e-	.	.	.	.	.	.
8F#\L 8A# 8c 8e-	.	.	4.cc/	4.f#\	.	.
8F#\ 8A# 8c 8e-	.	.	.	.	.	.
8F#\ 8A# 8c 8e-	.	.	.	.	.	.
8F#\J 8A# 8c 8e-	.	.	8cc/	8f#\	.	.
*	*	*	*Xped	*	*	*
*	*	*	*v	*v	*	*
=133	=133	=133	=133	=133	=133
4Fn\ 4An 4c 4e-	.	.	4fn\ 4cc 4ffn	.	.
!	!	!	!LO:TUP:b:problem:klamra łukowa	!	!
(8FF/L 8E-	.	.	(24F/LL	.	.
.	.	.	24F#X/	.	.
.	.	.	24f/JJ	.	.
!	!	!	!LO:TUP:b:problem:klamra łukowa	!	!
8FF/ 8Dn	.	.	24Gn/LL	.	.
.	.	.	24A-/	.	.
.	.	.	24f/JJ	.	.
!	!	!	!LO:TUP:b:problem:klamra łukowa	!	!
8FF/ 8D-X	.	.	24An/LL	.	.
.	.	.	24A#X/	.	.
.	.	.	24f/JJ	.	.
!	!	!	!LO:TUP:b:problem:klamra łukowa	!	!
8FF/J) 8C	.	.	24B-/LL	.	.
.	.	.	24c/	.	.
.	.	.	24f/JJ)	.	.
!!LO:LB:g=original	!	!	!	!	!
=134	=134	=134	=134	=134	=134
*	*	*	*^	*	*
*	*	*	*ped	*	*	*
!LO:TX:t=P:problem:mixed beam	!	!	!	!	!	!
8GGG-/L 8GG-	.	.	8.bb-/L	4b-\ 4dd-	.	ff
16B-\L 16d- 16g-	.	.	.	.	.	.
16B-\JJ 16d- 16g-	.	.	16aa-/Jk	.	.	.
8B-\L 8d- 8g-	.	.	(8gg-\L	2ryy	.	.
!	!	!	!LO:TUP:a:problem:klamra łukowa	!	!	!
8B-\ 8d- 8g-	.	.	24ff\L	.	.	.
.	.	.	24gg-\	.	.	.
.	.	.	24aa-\JJ	.	.	.
8B-\ 8d- 8g-	.	.	32bb-\LLL	.	.	.
.	.	.	32ccc\	.	.	.
.	.	.	32ddd-\	.	.	.
.	.	.	32eee-\JJJ	.	.	.
*	*	*	*8va	*	*	*
8B-\J 8d- 8g-	.	.	32fff\LLL	.	.	.
.	.	.	32ggg-\	.	.	.
.	.	.	32aaa-\	.	.	.
.	.	.	32bbb-\JJJ	.	.	.
*	*	*	*Xped	*	*	*
*	*	*	*v	*v	*	*
=135	=135	=135	=135	=135	=135
.	.	.	8qccc/	.	.
*	*	*	*ped	*	*
4An\ 4c 4e- 4f	.	.	16cccc\LL	.	.
.	.	.	16bbb-\	.	.
.	.	.	16aaan\	.	.
.	.	.	16eee-\JJ	.	.
*	*	*	*X8va	*	*
[2FF/ [2F	.	.	16ccc\LL	.	.
.	.	.	16bb-\	.	.
.	.	.	16aan\	.	.
.	.	.	16ee-\JJ	.	.
.	.	.	16cc/LL	.	.
.	.	.	16b-/	.	.
.	.	.	16an/	.	.
.	.	.	16e-/JJ)	.	.
!!LO:LB:g=original	!	!	!	!	!
=136	=136	=136	=136	=136	=136
.	.	.	(8qc/	.	.
2.FF/] 2.F]	.	.	(16cc/LL)	.	.
.	.	.	16b-/	.	.
.	.	.	16an/	.	.
.	.	.	16e-/JJ	.	.
.	.	.	(8qc/	.	.
.	.	.	16cc/LL)	.	.
.	.	.	16b-/	.	.
.	.	.	16a/	.	.
.	.	.	16e-/JJ	.	.
.	.	.	(8qc/	.	.
.	.	.	16cc/LL)	.	.
.	.	.	16b-/	.	.
.	.	.	16a/	.	.
.	.	.	16e-/JJ)	.	.
*clefG2	*	*	*	*	*
=137	=137	=137	=137	=137	=137
.	.	.	(8qc/	.	.
(8dd-^\L	.	.	(16cc/LL)	.	.
.	.	.	16b-/	.	.
8cc\J)	.	.	16an/	.	.
.	.	.	16e-/JJ	.	.
.	.	.	(8qc/	.	.
2f/	.	.	16cc/LL)	.	.
.	.	.	16b-/	.	.
.	.	.	16a/	.	.
.	.	.	16e-/JJ	.	.
.	.	.	(8qc/	.	.
.	.	.	16cc/LL)	.	.
.	.	.	16b-/	.	.
.	.	.	16a/	.	.
.	.	.	16e-/JJ)	.	.
!!LO:LB:g=original	!	!	!	!	!
=138	=138	=138	=138	=138	=138
.	.	.	(8qc/	.	.
8g-/L	.	.	(16cc/LL)	.	.
.	.	.	16b-/	.	.
!	!	!	!LO:TX:b:i:t=ritardando	!	!
8f/J	.	.	16an/	.	.
.	.	.	16e-/JJ	.	.
.	.	.	(8qc/	.	.
4.c/	.	.	16cc/LL)	.	.
.	.	.	16b-/	.	.
.	.	.	16a/	.	.
.	.	.	16e-/JJ	.	.
.	.	.	(8qc/	.	.
.	.	.	16cc/LL)	.	.
.	.	.	16b-/	.	.
8An/	.	.	16a/	.	.
.	.	.	16e-/JJ)	.	.
*clefF4	*	*	*	*	*
=139	=139	=139	=139	=139	=139
.	.	.	(8qc/	.	.
*^	*	*	*	*	*
8C/L	4ryy	.	.	16cc/LL)	.	.
.	.	.	.	16b-/	.	.
[8FF/J	.	.	.	16an/	.	.
.	.	.	.	16e-/JJ	.	.
2An/	2FF\]	.	.	8cc/L	.	.
.	.	.	.	8a/	.	.
.	.	.	.	8f/	.	.
.	.	.	.	8e-/J	.	.
*v	*v	*	*	*	*	*
*	*	*	*Xped	*	*
=140||	=140||	=140||	=140||	=140||	=140||
*k[andngnb-e-]	*	*	*k[andngnb-e-]	*	*
*	*	*	*^	*	*
!	!	!	!LO:TX:b:i:t=sempre legatissimo	!	!	!
!	!	!	!LO:TX:a:B:t=tempo I.o	!	!	!
(8BBB-/L	.	.	8f/L	8d\L	.	p
8BB-/J	.	.	8b-/J	8d\J	.	.
8B-\L	.	.	4.dd/	8f\L	.	.
8A\	.	.	.	8f#X\	.	.
8A-X\	.	.	.	8fn\	.	.
8G\J	.	.	8cc/	8e-\J	.	.
=141	=141	=141	=141	=141	=141	=141
8G-X\L	.	.	8b-/L	8d\L	.	.
8F\	.	.	8d/J	8d\J	.	.
8En\	.	.	4.a/	8c#X\L	.	.
8E-X\	.	.	.	8cn\	.	.
8D\	.	.	.	8Bn\	.	.
8D-X\J	.	.	8g/	8B-X\J	.	.
!!LO:LB:g=original	!	!	!	!	!	!
=142	=142	=142	=142	=142	=142	=142
*^	*	*	*	*	*	*
4C/)	8r	.	.	8f/L	4.A\ 4.e-	.	.
.	4.FF\	.	.	16g/L	.	.	.
.	.	.	.	16f/JJ	.	.	.
8C/L	.	.	.	8en/L	.	.	.
8E-/	.	.	.	8f/	8A\L 8c	.	.
8D/	4r	.	.	8g/	8B-\	.	.
8C/J	.	.	.	8a/J	8A\J 8e 8f	.	.
*v	*v	*	*	*	*	*	*
=143	=143	=143	=143	=143	=143	=143
8BB-/L 8B-	.	.	8b-/L	8d\L 8f	.	.
8AA/ 8A	.	.	8cc/	8d\ 8f#X	.	.
8GG/ 8G	.	.	8dd/	8d\ 8b-	.	.
8FF#X/ 8F#X	.	.	8a/	8d\	.	.
.	.	.	8qcc/	.	.	.
8GG/ 8G	.	.	8b-/	8d\	.	.
8EE-/J 8E-	.	.	8g/J	8c\J	.	.
=144	=144	=144	=144	=144	=144	=144
(8BBB-/L	.	.	8f/L	8d\L	.	.
8BB-/J	.	.	8b-/J	8d\J	.	.
8B-\L	.	.	4.dd/	8f\L	.	.
8A\	.	.	.	8f#X\	.	.
8A-X\	.	.	.	8fn\	.	.
8G\J	.	.	8cc/	8e-\J	.	.
=145	=145	=145	=145	=145	=145	=145
8G-X\L	.	.	8b-/L	8d\L	.	.
8F\	.	.	8d/J	8d\	.	.
8En\	.	.	4.a/	8c#X\	.	.
8E-X\	.	.	.	8cn\	.	.
8D\	.	.	.	8Bn\	.	.
8D-X\J	.	.	8g/	8B-X\J	.	.
!!LO:PB:g=original	!	!	!	!	!	!
=146	=146	=146	=146	=146	=146	=146
*^	*	*	*	*	*	*
4C/)	8rDD	.	.	8f/L	4.A\ 4.e-	.	.
.	4.FF\	.	.	16g/L	.	.	.
.	.	.	.	16f/JJ	.	.	.
8C/L	.	.	.	8en/L	.	.	.
8E-/	.	.	.	8f/	8A\L 8c	.	.
8D/	4rFF	.	.	8g/	8B-\	.	.
8C/J	.	.	.	8a/J	8A\J 8e 8f	.	.
*v	*v	*	*	*	*	*	*
*	*	*	*v	*v	*	*
=147	=147	=147	=147	=147	=147
(8BB-/L 8B-	.	.	(8d/L 8f 8dd	.	<
8AAn/ 8An	.	.	8c/ 8f 8cc	.	.
8AA-X/ 8A-X	.	.	8d/ 8b- 8dd	.	.
8GG/ 8G	.	.	8e-/ 8b- 8ee-	.	.
8GG-X/ 8G-X	.	.	8en/ 8b- 8een	.	.
8FF/J) 8F	.	.	8f/J) 8b- 8dd 8ff	.	[[
=148	=148	=148	=148	=148	=148
*	*	*	*^	*	*
*	*	*	*	*^	*	*
(8FFF/L	.	.	(8gg/L	4a\ 4ee-	4ryy	.	f
8FF/J	.	.	8ff/J	.	.	.	.
8FF/L 8F	.	.	2cc/	8a\L 2e-\	2ryy	.	.
8GG/ 8G	.	.	.	8g\	.	.	.
8AA-X/ 8A-X	.	.	.	8f#X\	.	.	.
8AAn/J 8An	.	.	.	8fn\J	.	.	.
=149	=149	=149	=149	=149	=149	=149	=149
8BB-/L 8B-	.	.	8ee-/L	4d\ 4f	4ryy	.	.
8AA/ 8A	.	.	8dd-y/J	.	.	.	.
8AA-X/ 8A-X	.	.	2b-/	8f\L 2d\	2ryy	.	.
8GG/ 8G	.	.	.	8g\	.	.	.
8FF#X/ 8F#X	.	.	.	8a-X\	.	.	.
8FFn/J) 8Fn	.	.	.	8an\J	.	.	.
*	*	*	*	*v	*v	*	*
!!LO:LB:g=original	!	!	!	!	!	!
=150	=150	=150	=150	=150	=150	=150
(8EEn/L 8En	.	.	8dd/L	4c\ 4g	.	.
8EE-X/J 8E-X	.	.	8cc/J	.	.	.
8CC/L 8C	.	.	4g/	8e-\L	.	.
8FFF/J 8FF	.	.	.	[8A\J	.	.
8FF/L 8F	.	.	4a/	8A\L_ 8e-	.	.
8FFF/J) 8FF	.	.	.	8A\J]) 8f	.	.
*	*	*	*v	*v	*	*
=151	=151	=151	=151	=151	=151
(8BB-/L 8B-	.	.	(8d/L 8f 8b-	.	.
8AAn/ 8An	.	.	8c/ 8f 8cc	.	.
8AA-X/ 8A-X	.	.	8d/ 8b- 8dd	.	.
8GG/ 8G	.	.	8e-/ 8b- 8ee-	.	.
8GG-X/ 8G-X	.	.	8en/ 8b- 8een	.	.
8FF/J) 8F	.	.	8f/J) 8b- 8dd 8ff	.	.
=152	=152	=152	=152	=152	=152
*	*	*	*^	*	*
*	*	*	*	*^	*	*
(8FFF/L	.	.	(8gg/L	4a\ 4ee-	4ryy	.	.
8FF/J	.	.	8ff/J	.	.	.	.
8FF/L 8F	.	.	2cc/	8a\L 2e-	2ryy	.	.
8GG/ 8G	.	.	.	8g\	.	.	.
8AA-X/ 8A-X	.	.	.	8f#X\	.	.	.
8AAn/J 8An	.	.	.	8fn\J	.	.	.
=153	=153	=153	=153	=153	=153	=153	=153
8BB-/L 8B-	.	.	8ee-/L	4d\ 4f	4ryy	.	.
8AA/ 8A	.	.	8dd-y/J	.	.	.	.
8AA-X/ 8A-X	.	.	2b-/	8f\L 2d	2ryy	.	.
8GG/ 8G	.	.	.	8g\	.	.	.
8FF#X/ 8F#X	.	.	.	8a-X\	.	.	.
8FFn/J) 8Fn	.	.	.	8an\J	.	.	.
*	*	*	*	*v	*v	*	*
!!LO:LB:g=original	!	!	!	!	!	!
=154	=154	=154	=154	=154	=154	=154
(8EEn/L 8En	.	.	8dd/L	4c\ 4g	.	.
8EE-X/J 8E-X	.	.	8cc/J	.	.	.
8CC/L 8C	.	.	4g/	8e-\L	.	.
8FFF/J 8FF	.	.	.	[8A\J	.	.
8FF/L 8F	.	.	4a/	8A\L_ 8e-	.	.
8FFF/J) 8FF	.	.	.	8A\J]) 8f	.	.
*	*	*	*v	*v	*	*
=155	=155	=155	=155	=155	=155
8BBB-/L 8BB-	.	.	8B-/L 8b-	.	fff
8BBB-/ 8BB-	.	.	16B-/L	.	.
.	.	.	16B-/JJ	.	.
(8AAA-X/ 8AA-X	.	.	8A-X^/L	.	.
8BBB-/) 8BB-	.	.	16B-/L	.	.
.	.	.	16B-/JJ	.	.
(8GGG-X/ 8GG-X	.	.	8A-^/L	.	.
8BBB-/J) 8BB-	.	.	16B-/L	.	.
.	.	.	16B-/JJ	.	.
=156	=156	=156	=156	=156	=156
*^	*	*	*	*	*
!LO:TX:t=P:problem: błąd wyświetlania VHV	!	!	!	!	!	!
!LO:N:vis=2.	!	!	!	!LO:TX:t=P:problem:mixed beam	!	!
8EEEn/L 8EEn	2.EEE\ 2.EE	.	.	8En/L	.	.
16B-^\L 16en 16g	.	.	.	16cc#X^\L 16een 16ccc#X	.	.
16B-^\JJ 16e 16g	.	.	.	16cc#^\JJ 16ee 16ccc#	.	.
8B-^\L 8e 8g	.	.	.	8cc#^\L 8ee 8ccc#	.	.
8B-^\ 8e 8g	.	.	.	8cc#^\ 8ee 8ccc#	.	.
8B-^\ 8e 8g	.	.	.	8cc#^\ 8ee 8ccc#	.	.
8B-^\J 8e 8g	.	.	.	8cc#^\J 8ee 8ccc#	.	.
*v	*v	*	*	*	*	*
=157	=157	=157	=157	=157	=157
!	!	!	!LO:TX:t=P:problem:mixed beam	!	!
8B-\L 8en 8g	.	.	8cc#X\L 8een 8ccc#X	.	.
8BBB-/J 8BB-	.	.	16B-/L	.	.
.	.	.	16B-/JJ	.	.
(8AAA-X/L 8AA-X	.	.	8A-X^/L	.	.
8BBB-/J) 8BB-	.	.	16B-/L	.	.
.	.	.	16B-/JJ	.	.
(8GGG-X/L 8GG-X	.	.	8G-X^/L	.	.
8BBB-/J) 8BB-	.	.	16B-/L	.	.
.	.	.	16B-/JJ	.	.
!!LO:LB:g=original	!	!	!	!	!
=158	=158	=158	=158	=158	=158
*^	*	*	*	*	*
!LO:TX:t=P:problem: błąd wyświetlania VHV	!	!	!	!	!	!
!LO:N:vis=2.	!	!	!	!LO:TX:t=P:problem:mixed beam	!	!
8EEEn/L 8EEn	2.EEE\ 2.EE	.	.	8En/L	.	.
16B-^\L 16en 16g	.	.	.	16cc#X^\L 16een 16ccc#X	.	.
16B-^\JJ 16e 16g	.	.	.	16cc#^\JJ 16ee 16ccc#	.	.
8B-^\L 8e 8g	.	.	.	8cc#^\L 8ee 8ccc#	.	.
8B-^\ 8e 8g	.	.	.	8cc#^\ 8ee 8ccc#	.	.
8B-^\ 8e 8g	.	.	.	8cc#^\ 8ee 8ccc#	.	.
8B-^\J 8e 8g	.	.	.	8cc#^\J 8ee 8ccc#	.	.
*v	*v	*	*	*	*	*
=159	=159	=159	=159	=159	=159
8B-\ 8en 8g	.	.	8cc#X\L 8een 8ccc#X	.	.
*clefG2	*	*	*ped	*	*
16b-^\LL	.	.	16bb-^\L	.	f
16b-^\JJ	.	.	16bb-^\JJ	.	.
8b-^\L	.	.	8bb-^\L	.	.
8b-^\	.	.	8bb-^\	.	.
8b-^\	.	.	8bb-^\	.	.
8b-^\J	.	.	8bb-^\J	.	.
=160	=160	=160	=160	=160	=160
8dd\L	.	.	8bb-\L	.	>
16dd\L	.	.	16gg-X\L 16bb-	.	.
16dd\JJ	.	.	16gg-\JJ 16bb-	.	.
8dd\L	.	.	8gg-\L 8bb-	.	.
8dd\	.	.	8gg-\ 8bb-	.	.
8dd\	.	.	8gg-\ 8bb-	.	.
8dd\J	.	.	8gg-\J 8bb-	.	.
=161	=161	=161	=161	=161	=161
8dd\L	.	.	8gg-X\L 8bb-	.	.
16dd\L	.	.	16ee-\L 16gg-	.	.
16dd\JJ	.	.	16ee-\JJ 16gg-	.	.
8dd\L	.	.	8ee-\L 8gg-	.	.
8dd\	.	.	8ee-\ 8gg-	.	.
8dd\	.	.	8ee-\ 8gg-	.	.
8dd\J	.	.	8ee-\J 8gg-	.	]]
*	*	*	*Xped	*	*
!!LO:LB:g=original	!	!	!	!	!
=162	=162	=162	=162	=162	=162
*	*	*	*ped	*	*
8b-\L	.	.	8a\L 8cc 8ee- 8ff	.	.
16b-\L	.	.	16a\L 16cc 16ee- 16ff	.	.
16b-\JJ	.	.	16a\JJ 16cc 16ee- 16ff	.	.
8b-\L	.	.	8a\L 8cc 8ee- 8ff	.	.
8b-\	.	.	8a\ 8cc 8ee- 8ff	.	.
8b-\	.	.	8a\ 8cc 8ee- 8ff	.	.
8b-\J	.	.	8a\J 8cc 8ee- 8ff	.	.
*clefF4	*	*	*Xped	*	*
=163	=163	=163	=163	=163	=163
*	*	*	*ped	*	*
8BBB-/L 8BB-	.	.	(>4.f/ 4.b- 4.dd-X	.	pp
16BBB-/L 16BB-	.	.	.	.	.
16BBB-/JJ 16BB-	.	.	.	.	.
8BBB-/L 8BB-	.	.	.	.	.
8BBB-/ 8BB-	.	.	(8b-/L)	.	.
8BBB-/ 8BB-	.	.	8f/	.	.
8BBB-/J 8BB-	.	.	8d-X/J)	.	.
=164	=164	=164	=164	=164	=164
8BBB-/L 8BB-	.	.	(8.B-/L	.	.
16BBB-/L 16BB-	.	.	.	.	.
16BBB-/JJ 16BB-	.	.	16B-/Jk	.	.
*	*	*	*Xped	*	*
8BBB-/L 8BB-	.	.	(>4f/)	.	.
8BBB-/ 8BB-	.	.	.	.	.
8BBB-/ 8BB-	.	.	4G-X/) 4B- 4e-	.	.
8BBB-/J 8BB-	.	.	.	.	.
=165	=165	=165	=165	=165	=165
8BBB-/L 8BB-	.	.	8B-/L 8d-X 8f	.	.
16EE-/L 16E-	.	.	8B-/J 8d- 8g	.	.
16EE-/JJ 16E-	.	.	.	.	.
8AA-X/L 8E-	.	.	4A-X/ 4c 4a-X	.	.
8AA-/ 8E-	.	.	.	.	.
8AA-/ 8E-	.	.	4A-/ 4c 4e-	.	.
8AA-/J 8E-	.	.	.	.	.
=166	=166	=166	=166	=166	=166
*	*	*	*^	*	*
8AA-X/L 8E-	.	.	(8e-/L	4A-X\ 4c	.	.
16AA-/L 16E-	.	.	8g-X/J	.	.	.
16AA-/JJ 16E-	.	.	.	.	.	.
8DD-X/L 8D-X	.	.	(4f/	4F\ 4d	.	.
8DD-/J 8D-	.	.	.	.	.	.
8GG-X/L 8D-	.	.	4B-/))	4G-X\	.	.
8GG-/J 8D-	.	.	.	.	.	.
*	*	*	*v	*v	*	*
!!LO:PB:g=original	!	!	!	!	!
=167	=167	=167	=167	=167	=167
8AA-X/L 8C	.	.	(>8G-X/L 8A-X	.	.
16AA-/L 16C	.	.	8G-/ 8A-	.	.
16AA-/JJ 16C	.	.	.	.	.
8AA-/L 8D-X	.	.	8G-/ 8B-	.	.
8AA-/J 8E-	.	.	8G-/J 8A-	.	.
8DD-X/L 8D-	.	.	4F/) 4d-X	.	.
8DD-/J 8D-	.	.	.	.	.
=168	=168	=168	=168	=168	=168
*	*	*	*^	*	*
8CC/L 8C	.	.	(8e-/L	4An\	.	>
16CC/L 16C	.	.	8g-X/J	.	.	.
16CC/JJ 16C	.	.	.	.	.	.
8BBB-/L 8BB-	.	.	4d-X/ 4f	2ryy	.	.
8BBB-/ 8BB-	.	.	.	.	.	.
8BBB-/ 8BB-	.	.	8c/L 8e-	.	.	.
8BBB-/J 8BB-	.	.	8B-/J) 8d-X	.	.	.
*	*	*	*v	*v	*	*
=169	=169	=169	=169	=169	=169
*^	*	*	*	*	*
*	*	*below	*	*	*above	*
(16G-X/LL	2.BBB-\ 2.BB-	.	.	8A/ 8c	4 5	]
16F/	.	1	.	.	.	.
16E-/	.	2	.	4A/ 4c	4 5	.
16F/JJ	.	.	.	.	.	.
8G-/L	.	2	.	.	.	.
8F/	.	1	.	8A/L 8c	.	.
8E-/	.	2	.	8A/ 8c	.	.
8C/J)	.	.	.	8A/J 8c	.	.
*v	*v	*	*	*	*	*
=170	=170	=170	=170	=170	=170
8BBB-\L 8BB-	.	.	8D-X</L 8F< 8B-<	.	.
!	!	!	!LO:TX:b:i:t=mor_mo_ran_do_:dur=15e6s:ext=ud:problem:text with line extensions	!	!
16BBB-\L 16BB-	.	.	16D-</L 16F< 16B-<	.	.
16BBB-\JJ 16BB-	.	.	16D-</JJ 16F< 16B-<	.	.
8BBB-\L 8BB-	.	.	8D-</L 8F< 8B-<	.	.
8BBB-\J 8BB-	.	.	8D-</J 8F< 8B-<	.	.
8BBB-\L 8EE- 8BB-	.	.	8E-</L 8G-<X 8B-<	.	.
8BBB-\J 8EE- 8BB-	.	.	8E-</J 8G-< 8B-<	.	.
=171	=171	=171	=171	=171	=171
8BBB-\L 8BB-	.	.	8D-X</L 8F< 8B-<	.	>
16BBB-\L 16BB-	.	.	16D-</L 16F< 16B-<	.	.
16BBB-\JJ 16BB-	.	.	16D-</JJ 16F< 16B-<	.	.
8BBB-\L 8BB-	.	.	8D-</L 8F< 8B-<	.	.
8BBB-\J 8BB-	.	.	8D-</J 8F< 8B-<	.	.
8BBB-\L 8EE- 8BB-	.	.	8E-</L 8G-X< 8B-<	.	.
8BBB-\J 8EE- 8BB-	.	.	8E-</J 8G-< 8B-<	.	.
!!LO:LB:g=original	!	!	!	!	!
=172	=172	=172	=172	=172	=172
8BBB-\L 8BB-	.	.	8D-X</L 8F< 8B-<	.	.
16BBB-\L 16BB-	.	.	16D-</L 16F< 16B-<	.	.
16BBB-\JJ 16BB-	.	.	16D-</JJ 16F< 16B-<	.	.
8BBB-\L 8BB-	.	.	8D-</L 8F< 8B-<	.	.
8BBB-\J 8BB-	.	.	8D-</J 8F< 8B-<	.	.
8FFF\L 8FF	.	.	8C</L 8F< 8A<	.	.
8FFF\J 8FF	.	.	8C</J 8F< 8A<	.	]]
=173	=173	=173	=173	=173	=173
*	*	*	*ped	*	*
8BBB-/L 8BB-	.	.	8d/L	.	p
!	!	!	!LO:TX:b:i:t=eguale	!	!
(8B-\J	.	.	16f/L	.	.
.	.	.	16f/JJ	.	.
8F\L 8d	.	.	(4.b-/	.	.
8B-\	.	.	.	.	.
8F\ 8d	.	.	.	.	.
8B-\J)	.	.	8f/)	.	.
*	*	*	*Xped	*	*
=174	=174	=174	=174	=174	=174
.	.	.	(8qa/	.	.
*	*	*	*ped	*	*
(8EE-/L	.	.	(16g/LL)	.	.
.	.	.	16f#X/	.	.
8G\J	.	.	16g/	.	.
.	.	.	16a/JJ	.	.
8E-\L 8c	.	.	4.g/	.	.
8G\	.	.	.	.	.
8E-\ 8c	.	.	.	.	.
8G\J)	.	.	8f#/)	.	.
*	*	*	*Xped	*	*
=175	=175	=175	=175	=175	=175
*	*	*	*ped	*	*
8FF/L	.	.	8fn/L	.	.
8e-\J	.	.	16a/L	.	.
.	.	.	16a/JJ	.	.
(8A\L 8f	.	.	8cc\L	.	.
8F\ 8e-	.	.	8bn\	.	.
8A\ 8f	.	.	8cc\	.	.
8F\J) 8e-	.	.	8cc#X\J	.	.
*	*	*	*Xped	*	*
=176	=176	=176	=176	=176	=176
.	.	.	8qee-/	.	.
*	*	*	*ped	*	*
8BBB-/L	.	.	16dd\LL	.	.
.	.	.	16cc#X\	.	.
8B-/J	.	.	16dd\	.	.
.	.	.	16b-\JJ	.	.
8F\L 8d	.	.	4.f/	.	.
8B-\	.	.	.	.	.
8F\ 8d	.	.	.	.	.
8B-\J	.	.	8b-\	.	.
*	*	*	*Xped	*	*
!!LO:LB:g=original	!	!	!	!	!
=177	=177	=177	=177	=177	=177
.	.	.	(8qa/	.	.
*	*	*	*ped	*	*
8DD/L	.	.	8b-\L)	.	.
.	.	.	(8qgg/	.	.
8B-\J	.	.	8ff\)	.	.
.	.	.	(8qa/	.	.
8F\L 8d	.	.	8b-\)	.	.
.	.	.	(8qgg/	.	.
8B-\J	.	.	8ff\J)	.	.
.	.	.	(8qa/	.	.
8F\L 8d	.	.	8b-\L)	.	.
.	.	.	(8qgg/	.	.
8B-\J	.	.	8ff\J)	.	.
*	*	*	*Xped	*	*
=178	=178	=178	=178	=178	=178
.	.	.	(8qbn/	.	.
*	*	*	*ped	*	*
8EE-/L	.	.	8cc\L)	.	.
.	.	.	8qff/	.	.
8G\J	.	.	16ee-\L	.	.
.	.	.	16cc\JJ	.	.
8E-\L 8c	.	.	4.g/	.	.
8G\	.	.	.	.	.
8E-\ 8c	.	.	.	.	.
8G\J	.	.	8f#X/	.	.
*	*	*	*Xped	*	*
=179	=179	=179	=179	=179	=179
*	*	*	*	*below	*
.	.	.	8qg/	4	.
*	*	*	*ped	*	*
8FF/L	.	.	(16f/LL	3	.
.	.	.	16en/	.	.
8F\J	.	.	16f/	.	.
.	.	.	16g/JJ	.	.
8B-\L 8d	.	.	16a/LL	1	.
.	.	.	16b-/	2	.
8F\J	.	.	16bn/	3	.
*	*	*	*Xped	*	*
.	.	.	16cc/JJ)	.	.
8A\L 8c	.	.	8.e-X/L 8.a 8.dd	.	.
8F\J	.	.	.	.	.
.	.	.	16cc/Jk	.	.
=180	=180	=180	=180	=180	=180
(8BB-/L	.	.	8d/L 8b-	.	.
8FF/J) 8F	.	.	(16d/L 16a 16dd	.	.
.	.	.	16cc/JJ	.	.
(8BB-/L	.	.	8d/L) 8b-	.	.
8FF/J) 8F	.	.	(16e-/L 16a 16dd	.	.
.	.	.	16cc/JJ	.	.
4BB-/	.	.	4d/) 4b-	.	.
!!LO:LB:g=original	!	!	!	!	!
=181	=181	=181	=181	=181	=181
*	*	*	*ped	*	*
8DD\L 8D	.	.	8d/ 8f#X 8a 8dd	.	f
8DD\J	.	.	(<16D</LL	.	.
.	.	.	16F#X</	.	.
8FF#X\L	.	.	16A</	.	.
.	.	.	16d</	.	.
8AA\J	.	.	16f#/	.	.
.	.	.	16a/JJ	.	.
8D/L	.	.	8.d/L) 8.f# 8.dd	.	.
8DD/J	.	.	.	.	.
.	.	.	16cc/Jk	.	.
*	*	*	*Xped	*	*
=182	=182	=182	=182	=182	=182
*	*	*	*ped	*	*
8GG\L 8G	.	.	16b-/LL	.	.
.	.	.	16a/	.	.
16G\L 16B- 16d	.	.	16g/	.	.
16G\JJ 16B- 16d	.	.	16f#X/JJ	.	.
8G\L 8B- 8d	.	.	(8g\L	.	.
8G\ 8B- 8c#X	.	.	8gg\	.	.
8G\ 8B- 8en	.	.	8dd\	.	.
8G\J 8B- 8d	.	.	8b-\J)	.	.
*	*	*	*Xped	*	*
=183	=183	=183	=183	=183	=183
*	*	*	*ped	*	*
8CC\L 8C	.	.	8c/L 8en 8g 8cc	.	.
8CC\J	.	.	(<16C</L	.	.
.	.	.	16En</JJ	.	.
8EEn\L	.	.	16G</LL	.	.
.	.	.	16c/	.	.
8GG\J	.	.	16e/	.	.
.	.	.	16g/JJ	.	.
8C/L	.	.	8.e/L) 8.cc	.	.
8CC/J	.	.	.	.	.
.	.	.	16b-/Jk	.	.
=184	=184	=184	=184	=184	=184
8FF\L 8F	.	.	16a/LL	.	<
.	.	.	16g/	.	.
8F\J 8A 8e-	.	.	16f/	.	.
.	.	.	16en/JJ	.	.
8F\L 8A 8d	.	.	(16f\LL	.	.
.	.	.	16a\	.	.
8F\ 8A 8c	.	.	16cc\	.	.
.	.	.	16ee-\JJ	.	.
8F\ 8A 8B-	.	.	16ff\LL	.	.
.	.	.	16aa\	.	.
8F\J 8A	.	.	16ccc\	.	.
.	.	.	16eee-\JJ)	.	.
!!LO:LB:g=original	!	!	!	!	!
=185	=185	=185	=185	=185	=185
*	*	*	*ped	*	*
4.FF/ 4.F	.	.	4.ff\ 4.aa 4.eee- 4.fff	.	.
*clefG2	*	*	*	*	*
16f/LL 16cc	.	.	16ff\LL 16aa 16eee- 16fff	.	ff
16f/JJ 16cc	.	.	16ff\JJ 16aa 16eee- 16fff	.	.
8f/L 8cc	.	.	8ff\L 8aa 8eee- 8fff	.	.
16f/L 16cc	.	.	16ff\L 16aa 16eee- 16fff	.	.
16f/JJ 16cc	.	.	16ff\JJ 16aa 16eee- 16fff	.	.
=186	=186	=186	=186	=186	=186
4.f/ 4.cc	.	.	4.ff\ 4.aa 4.eee- 4.fff	.	.
8f/L 8cc	.	.	16ff\LL 16aa 16eee- 16fff	.	.
.	.	.	16ff\JJ 16aa 16eee- 16fff	.	.
8f/ 8cc	.	.	8ff\L 8aa 8eee- 8fff	.	.
8f/J 8cc	.	.	16ff\L 16aa 16eee- 16fff	.	.
.	.	.	16ff\JJ 16aa 16eee- 16fff	.	.
*	*	*	*Xped	*	*
=187	=187	=187	=187	=187	=187
*	*	*	*ped	*	*
*	*	*	*8va	*	*
2.Bn^/ 2.f 2.a-X 2.dd	.	.	[4ffff\	2	.
.	.	.	16ffff\LL]	.	.
.	.	.	16gggg\	.	.
.	.	.	16ffff\	.	.
.	.	.	16gggg\JJ	.	.
.	.	.	16ffff\LL	.	.
.	.	.	16gggg\	.	.
.	.	.	16ffff\	.	.
.	.	.	16gggg\JJ	.	.
*clefF4	*	*	*Xped	*	*
=188	=188	=188	=188	=188	=188
8F^^\ 8c 8e- 8a	.	.	16ffff\LL	2	.
.	.	.	16gggg-X\	.	.
8r	.	.	16aaaa\	.	.
.	.	.	16ggggn\JJ	.	.
4r	.	.	16ffff\LL	2	p
.	.	.	16gggg-X\	.	.
.	.	.	16ffff\	.	.
.	.	.	16ffff-X\JJ	.	.
4r	.	.	16eeee-\LL	4	.
.	.	.	16cccc\	.	.
.	.	.	16aaa\	.	.
!!LO:TX:t=P:problem:brak dalszej strony utworu	!	!	!	!	!
.	.	.	16gggn\JJ	.	.
*	*	*	*X8va	*	*
=	=	=	=	=	=
*-	*-	*-	*-	*-	*-
!!!system-decoration: {(s1,s2)}
!!!RDF**kern: > = above
!!!RDF**kern: < = below
!!!ENC: Filip Voros
!!!END: 2022-07-29
!!!ENC: Jan Barakat
!!!END: 2022-08-27!!!YEC: Copyright 2022 Narodowy Instytut Fryderyka Chopina (https://polishscores.org)
!!!YEM: License CC-BY-4.0 (https://creativecommons.org/licenses/by/4.0)
